/* XPM */
static char *result[] = {
/* columns rows colors chars-per-pixel */
"50 46 76 1 ",
"  c #797167",
". c #7C746A",
"X c #7F796D",
"o c #7E7B73",
"O c #83776F",
"+ c #827A6E",
"@ c #847D73",
"# c #897F74",
"$ c #827F78",
"% c #858276",
"& c #8A8375",
"* c #85837B",
"= c #8B857A",
"- c #8D897D",
"; c #91867B",
": c #928A7E",
"> c #868680",
", c #898680",
"< c #878980",
"1 c #8E8C82",
"2 c #8E8D89",
"3 c #938D82",
"4 c #998E83",
"5 c #928E89",
"6 c #8F9186",
"7 c #8D9189",
"8 c #959185",
"9 c #9A9285",
"0 c #95948A",
"q c #9B958A",
"w c #96988C",
"e c #9C998D",
"r c #979792",
"t c #999791",
"y c #969892",
"u c #9C9C93",
"i c #9D9E98",
"p c #A0978B",
"a c #A19A8E",
"s c #A29D93",
"d c #A89E94",
"f c #A09F99",
"g c #9EA096",
"h c #9EA19A",
"j c #A4A195",
"k c #A9A195",
"l c #A4A49B",
"z c #A9A69B",
"x c #A7A89D",
"c c #ABA99E",
"v c #B1AC9F",
"b c #A4A6A1",
"n c #A9A7A1",
"m c #A6A9A2",
"M c #ABACA3",
"N c #A5ACA8",
"B c #ACAEA9",
"V c #B1ADA4",
"C c #B1AFA9",
"Z c #AEB1A6",
"A c #AEB1AB",
"S c #B3B1A6",
"D c #B3B3AB",
"F c #B9B5AC",
"G c #B5B8AE",
"H c #B9B9AF",
"J c #B3B6B1",
"K c #B9B6B1",
"L c #B5BAB3",
"P c #BABCB4",
"I c #BDBFB8",
"U c #B7C0B7",
"Y c #BCC2B6",
"T c #BCC3BB",
"R c #C1C3BC",
"E c #C5CCC4",
/* pixels */
"**<%2-*h2<w71=%8e8-w=-8%-111-=tu-w*o3w2*=$>*yy>o>*",
"--61MbgJmhLm2w0868-33yyMAhuwlhw>=31:3$0y7wr2ry>1$o",
"<-1-hhhAmhy<2e8%w6ubmlhALhhhUUDAy1<2w3*lNymmiNr2$o",
"**81hhNhN7-31=-MLhhBMhuAMxAbTJLTmnb0<3=*<hyh7h>>7o",
"=-80Jhh7818-2hgLUAbxlAlZZZLATLILhMJml101<yhyhNr27$",
"*%8-hhhwm5%wMbxxUUtADlxlZgmAUAEAlhiBUx8322,bNJi20<",
"780-lg77w&wAJwxhll0ll0qeewllhgNhMliJBAl-3u1=ii7>1*",
"6-8wZ6-6=MlmUAgmwttsdjllslLANhu7hhABhJy21rq3<Niry*",
"$w33y&8-uLAhNGlggecjju0040jjulmBuwDmMlhlBw88>hfqu=",
"<uy,88=0llAAxAglSqqq:g8-33:=w0ybsMeeMuALJl=--305r=",
"=e0%w08lMmhAlwMZj0-q-e0jeuuysw2-9lMlyJLNmlt*55$5i5",
"=u1y8-MhBTAgeAAuww8jZjexsumDuwe--5hmulBAAhl2$1*$2o",
"*w8g-lEAlBPhxBj8:jgMPGcVsxnelMlu9-qfZejLMiib*$$$2@",
"X%:0=ZNxxhwsSl8:ajljPLguqjuxDnuPKq90lAuiBMmAi0t,8-",
"==-&eYmuhxwlq8:8DMBhqe330w;45azzzwq32lfeLLAhi1-*05",
"*-:&xTYAZegAw44yDlh84=3198-4=3qszas38uDsnbNliw--$1",
"%&4:lnmPTubi3:xxscq:83SS8qGl03:qdwitqqzzsMMNht8e--",
"&8-9GxlBnlmw3=sSMq:-qqMe8:8li44d9lmfq3zMstuyty=13-",
"9swlGluMxnb443aZB8-uyq:nZlj3ep390mblu9uJziJAAn538&",
"=qexMZhmlMBq3zlql34Hl33sjlg8eCnw34jdl:0CllLlbi24s*",
"=:&ZMAGZlAMqeZulq83M0klq-wusjzS:8qVsq,4ls9wiMn,=e@",
"0q=jnlZxqja:-jgeq493enb3p94Mu44sssj9t33wzyiffl33g=",
"-=&ZDLPGavs:qcvc9a3s3CMw99sCM40qqdVap34ll0ssft*13*",
":e-lllxusxze:ess99qDtlzeqswkllx44pzzs4dCnwilBnq#1@",
"8s&jGxnMevxq9xac9=:zM94GCJM99Bl49Cakd4wMilViir3=3O",
"e:%SUclgqMlw;8SSv94;84qafssq494::VVa3q0btiMMl0$=%.",
"0wqaAllxgjcj::HSs9343aVj-qFnq::9szCuueulwwtllq*=%@",
":eq:ZllnceSc8qkaxMw994slqsza;9=sCzBt4exftCblMs4q-%",
"0-:&jwwMG0Vxeq:vxsak::;3p4=::9zczEs-@9Dwslilne:u4%",
":&q&eDDRPg3jv:kppvpejz489:::duzdsPq44p4qJCfwy395*%",
"8+:waPPDjxxcvv8:9xjlFVtzdskzDnkds0;=ds9qnJCDu=qqOO",
";%&:&vxxlZc8SHs:9;8ZzkszsVkaCDzqd4;ddq9lzzlD3&q3-X",
"w:&qe:YZSvjw9FHc:4:p9kVvakqazj94;9ska8sqDMlu%-=-8.",
"e:+qj&kYZjkj9jSYx4:d999p9k9p44:;qkdp3VGusBD0-:;3& ",
"-&:w:--kxccjGvevlak9999;:::;34ssad::dfCM4lu&@=O4:%",
"9-jj::8:jjkGRGSc:vzkda99::aslzVV99xklVlDBt&4=13%%X",
"w:sc8:q::jDPUHRcjaakakkskHFSxjsq9aKDslDjs+;q&lt&-O",
"- &we-dv:8FSSRZcHjsa:ppp:vvjeeqpDzzIClKs;;O@#s338O",
":%:jkc8c::;jPDeSHjckvHzkdkavMMDCDCsCFns=q9@3u32&%.",
":9jZxgq8::99vzxHSzVqSDxlcRcRScKnVzzCFq&=&&@s0Mf@3@",
":-8awxex:ap:::FYvvSzSSjkzDxVSaDSszMsq:4=O-f3wnt=3O",
"s-gxwxggu9:9a:&:dvScDZkcsMdMDezvss3=q4&+&Mlt10=@X ",
"-&wjxZUxxcz-::::::epklcvqVejFq:aa9=:493wjlfi4f,#% ",
"&%%8-::&:8:::::daaa::::::a:&4;&&ds4+@&lu93e9*91@% ",
":=:aa:&-:::kk;&:&pa:;4:#3;;:q:pp:9;#==&&@-95@$O@&X",
"-%8a::::::ak:d::;;:;;p9:4;;:-&&:O;p;;;=:3;9=@&$&; "
};
