/* XPM */
static char *result[] = {
/* columns rows colors chars-per-pixel */
"50 50 215 2 ",
"   c #151416",
".  c #1C1B1C",
"X  c #171917",
"o  c #15100F",
"O  c #221C18",
"+  c #172717",
"@  c #143411",
"#  c #30281C",
"$  c #1D1D21",
"%  c #221E25",
"&  c #271E2A",
"*  c #222224",
"=  c #25232A",
"-  c #2B232B",
";  c #2C2C2C",
":  c #392D25",
">  c #2C2A35",
",  c #2E2A3A",
"<  c #2B2435",
"1  c #322D3B",
"2  c #302F36",
"3  c #34323B",
"4  c #3E3D3D",
"5  c #333236",
"6  c #27372D",
"7  c #633C1C",
"8  c #433523",
"9  c #422D30",
"0  c #6C3B33",
"q  c #145B15",
"w  c #0F430D",
"e  c #24431E",
"r  c #137214",
"t  c #156B14",
"y  c #344C27",
"u  c #166332",
"i  c #206C2B",
"p  c #115D30",
"a  c #43461C",
"s  c #62450E",
"d  c #45492B",
"f  c #56422D",
"g  c #4C4936",
"h  c #5B463D",
"j  c #795D3C",
"k  c #726423",
"l  c #342E40",
"z  c #3E3545",
"x  c #3C3B44",
"c  c #3D354A",
"v  c #3B3748",
"b  c #3F3A50",
"n  c #403646",
"m  c #42354D",
"M  c #403F4A",
"N  c #4F3347",
"B  c #513349",
"V  c #523B4B",
"C  c #453650",
"Z  c #433E57",
"A  c #653F71",
"S  c #3B5344",
"D  c #1C7D58",
"F  c #44424B",
"G  c #464552",
"H  c #494557",
"J  c #575751",
"K  c #5B605A",
"L  c #4C4562",
"P  c #4F4A66",
"I  c #544C6D",
"U  c #574B6F",
"Y  c #574E71",
"T  c #5A5074",
"R  c #5D547B",
"E  c #5B5479",
"W  c #61567C",
"Q  c #63597D",
"!  c #615E6A",
"~  c #767573",
"^  c #78757E",
"/  c #6F6B6C",
"(  c #727849",
")  c #853928",
"_  c #874B1C",
"`  c #A55A14",
"'  c #AA5918",
"]  c #BB5817",
"[  c #B44813",
"{  c #B36114",
"}  c #BE6512",
"|  c #88473E",
" . c #934C3A",
".. c #8A4F2F",
"X. c #A5593B",
"o. c #A9592F",
"O. c #A5612E",
"+. c #C55719",
"@. c #C44B11",
"#. c #DA770B",
"$. c #C46711",
"%. c #D56F11",
"&. c #E97E0D",
"*. c #E57F12",
"=. c #C66E26",
"-. c #D36826",
";. c #844541",
":. c #844842",
">. c #83595D",
",. c #AD6D4D",
"<. c #845676",
"1. c #897B51",
"2. c #C47752",
"3. c #1C921D",
"4. c #1A891D",
"5. c #1BA91C",
"6. c #0EAD1B",
"7. c #198E24",
"8. c #149C32",
"9. c #259A38",
"0. c #11BA31",
"q. c #778B1E",
"w. c #47843C",
"e. c #15D824",
"r. c #19D430",
"t. c #1BDB1B",
"y. c #108142",
"u. c #2DAD4A",
"i. c #7D865D",
"p. c #40B155",
"a. c #7E807F",
"s. c #53986C",
"d. c #9FAD0E",
"f. c #A1AD12",
"g. c #EC830C",
"h. c #E68011",
"j. c #988459",
"k. c #AD8F58",
"l. c #AC926D",
"z. c #A6B073",
"x. c #AEAB56",
"c. c #D89348",
"v. c #C69359",
"b. c #CC8C4D",
"n. c #E19A50",
"m. c #DDA75B",
"M. c #C6AF5F",
"N. c #E6AD5E",
"B. c #C78862",
"V. c #DEAF6C",
"C. c #D9B677",
"Z. c #E3AE65",
"A. c #E6B56A",
"S. c #ECBD74",
"D. c #E3BB7C",
"F. c #E7B875",
"G. c #ECC37D",
"H. c #5F5680",
"J. c #645A83",
"K. c #6A5D85",
"L. c #754F91",
"P. c #6D6088",
"I. c #73658D",
"U. c #75698A",
"Y. c #7A6C93",
"T. c #7E7195",
"R. c #81718E",
"E. c #8A7287",
"W. c #816F90",
"Q. c #817090",
"!. c #84749B",
"~. c #8F7E9F",
"^. c #87799A",
"/. c #B36E9C",
"(. c #8A5AAE",
"). c #8956A8",
"_. c #8B59B0",
"`. c #8C56B1",
"'. c #8E7EA1",
"]. c #8677A0",
"[. c #927FA6",
"{. c #B67DA1",
"}. c #A69B8C",
"|. c #B2A784",
" X c #9281A3",
".X c #9785AB",
"XX c #9986AC",
"oX c #9C8AAF",
"OX c #9C8AB0",
"+X c #9C87B0",
"@X c #B2B4B2",
"#X c #979698",
"$X c #E7B182",
"%X c #ADC58D",
"&X c #D0C091",
"*X c #EBC684",
"=X c #E9C987",
"-X c #F3CB8B",
";X c #F5D38D",
":X c #EFCF92",
">X c #F4D695",
",X c #F8DC9B",
"<X c #FFE19E",
"1X c #C9C6B5",
"2X c #DDD2B4",
"3X c #F1DDA5",
"4X c #E2D6B5",
"5X c #FBE4A7",
"6X c #D9D3C3",
"7X c #CED2D1",
"8X c #D4D4D4",
"9X c #CCCAC4",
"0X c #E4E3DF",
"qX c #E6E6E3",
"wX c None",
/* pixels */
"wXwXwXwXwXwXwXwXwXwXwXwXwXwXwXwXwXwXwXwXwXwXwXwXwXwXwXwXwXwXwXwXwXwXwXwXwXwXwXwXwXwXwXwXwXwXwXwXwXwX",
"wXwXwXwXwXwXwXwXwXwXwXwXwXwXwXwXwXwXwXwXwXwXwXwXwXwXwXwXwXwXwXwXwXwXwXwXwXwXwXwXwXwXwXwXwXwXwXwXwXwX",
"wXwXwXwXwXwXwXwXwXwXwXwXwXwXwXwXwXwXwXwXwXwXwXwXwXwXwXwXwXwXwXwXwXwXwXwXwXwXwXwXwXwXwXwXwXwXwXwXwXwX",
"wXwXwXwXwXwXwXwXwXwXwXwXwXwXwXwXwXwXwXwXwXwXwXwXwXwXwXwXwXwXwXwXwXwXwXwXwXwXwXwXwXwXwXwX. $ wXwXwXwX",
"wXwXwXwXwXwXwXwXwXwXwXwXwXwXwXwXwXwXwXwXwXwXwXwXwXwXwXwXwXwXwXwXwXwXwXwXwXwXwXwXwXwXwX+ M M * wXwXwX",
"wXwXwXwXwXwXwXwXwXwXwXwXwXwXwXwXwXwXwXwXwXwXwXwXwXwXwXwXwXwXwXwXwXwXwXwXwXwXwXwXwXwX; 2 G z * wXwXwX",
"wXwXwXwXwXwXwXwXwXwXwXwXwXwXwXwXwXwXwXwXwXwXwXwXwXwXwXwXwXwXwXwXwXwXwXwXwXwXwXwXwX* 3 H x * $ wXwXwX",
"wXwXwXwXwXwXwXwXwXwXwXwXwXwXwXwXwXwXwXwXwXwXwXwXwXwXwXwXwXwXwXwXwXwXwXwXwXwXwXwX= F F > * . wXwXwXwX",
"wXwXwXwXwXwXwXwXwXwXwXwXwXwXwXwXwXwXwXwXwXwXwXwXwXwXwXwXwXwXwXwXwXwXwXwXwXwX. 3 x F 3 % wXwXwXwXwXwX",
"wXwXwXwXV.Z.Z.C.wXwXwXwXwXwXwXwXwXwXwXwXwXwXwXwXwXwXwXwXwXwXwXwXwXwXwXwXwX* 2 m G > $ wXwXwXwXwXwXwX",
"wXwXwXD.:X>X>X=XF.C.wXwXwXwXwXwXwXwXwXwXwXwXwXwXwXwXwXwXwXwXwXwXwXwXwXwX= 2 F S > . wXwXwXwXwXwXwXwX",
"wXwXwXD.:X,X>X=XG.G.=XwXwXwXwXwXwXwXwXwXwXwXwXwXwXwXwXwXwXwXwXwXwXwXwX= 5 H F > . wXwXwXwXwXwXwXwXwX",
"wXwXwXwXZ.Z.A.=X5X5XG.Z.F.wXwXwXwXwXwXwXwXwXwXwXwXwXwXwXwXwXwXwXwXwX+ n F b 3   wXwXwXwXwXwXwXwXwXwX",
"wXwXwXwXV.A.<XG.G.5X<XS.N.A.wXwXwXwXwXwXwXwXwXwXwXwXwXwXwXwXwXwXwX* M G 3 = . wXwXwXwXwXwXwXwXwXwXwX",
"wXwXwXwXwX$X=XA.N.S.G.-X;X;X=XwXwX@ @ r w t q @ wX) b.wXwXwXwX. ; 5 x 2 * . wXwXwXwXwXwXwXwXwXwXwXwX",
"wXwXwXwXwXwXZ.N.A.S.G.,X,X;XS.M.u.8.6.e.6.8.D u d v.b.k.wXwXwXO 5 F ; . wXwXwXwXwXwXwXwXwXwXwXwXwXwX",
"wXwXwXwXwXwXA.Z.=X3X3X5XC.n.m.x.u.0.r.e.e.u.D p y =X,.) wXwXwX8 # O wXwXX   wXwXwXwXwXwXwXwXwXwXwXwX",
"wXwXwXwXwXwXwXg g g g d d d a ( %Xd @ 6 e z.i.$ y C.j 9 : : 8 j.1.O + + X X X wXwXwXwXwXwXwXwXwXwXwX",
"wXwXwXwXwXwX$ ! ^ ^ S 4.5.5.5.9.s.1X6X6X2Xk.l.6X1Xk.&X4X4X4X4X|.8 @ 3.5.3.3.7.i + wXwXwXwXwXwXwXwXwX",
"wXwXwXwXwXwX& y G G 6 t r r t w.z.B.B.$X-XV.b.2.2.b.A.F.S.>X,XD.O.s t.t.t.e.r.i O wXwXwXwXwXwXwXwXwX",
"wXwXwXwXwX# f <.^ a./ K K K F ..n.] [ +.+.-.-.+.+.+.+.] -.c.n.c.=.` d.d.d.d.q.k 7 o wXwXwXwXwXwXwXwX",
"wXwXwXwXO F j.1X8X8X@X@X}.}.,.[ ' $.h.g.g.$.+.+.+.#.&.g.%.@.@.` ' { %.#.#.#.} ] _ O wXwXwXwXwXwXwXwX",
"wXwXwXwX> #X9X8X7X7X7X9Xl.' ' ' ' { { #.g.g.$.' ' ] $.g.&.} ` ` ` ` ` ` { #.&.$._ O % wXwXwXwXwXwXwX",
"wXwXwX> L x / ^ ^ ~ T.E.>.;.;.| :.:.:.:.X.X.;.;.:.:.| X.o.| | | :.;.;.;...' o. .0 & H ; wXwXwXwXwXwX",
"wXwXwX> P % H I U A L.).(.(.(.(.(.(.(.(._.(._._._._._.(.(.(.(._.(.`.`.`.A B ).).L., P ; wXwXwXwXwXwX",
"wXwXwX, I , l l 3 z c m c c m m m m m m c m C n C C m c m m C C m m m C n n C C z l I = wXwXwXwXwXwX",
"wXwXwX> R Q ^.[.~.~.~.~.'.'.'.'.~.'. X~.'.'. X X X X X X X X X X~. X~.~.~.~.~.~.!.Q T = wXwXwXwXwXwX",
"wXwXwX> R J.'..X+X+X+X+X+X+X+XOXOXoXOXOXOXoXoXOXoXoXoXoXoXoXoXXXoXoXoXoXoXoXXX.X].K.T = wXwXwXwXwXwX",
"wXwXwX< E E W Y.[.[..X[. X X[.[. X X X X X X X.X X X X X X X X X[. X X X X[.'.I.W R U & wXwXwXwXwXwX",
"wXwXwX> P < < l z n n z n n n z n n n n x n n n n n c n x x v v n m n n c z z , & , L < wXwXwXwXwXwX",
"wXwXwXwX& L U U T Y Y T U.Q.Q.Q.Q.Q.Q.Q.Q.Q.Q.Q.Q.Q.Q.Q.Q.Q.R.Q.W.W.Q.Q.Q.Q Y Y I Z % wXwXwXwXwXwXwX",
"wXwXwXwX$ l I K.J.K.J.I..XOX+XoXoXoXoXoXXXXXoXXXXXoXXXXXXXXXXXXXXXXX+X[.'.I.J.J.I c . wXwXwXwXwXwXwX",
"wXwXwXwXwX  c T J.J.J.[.+X+X.X.XXXXXXX.XXX.XoX.X.X.X.X.XXXXX.X.X.X.XXX[.I.J.J.Y l   wXwXwXwXwXwXwXwX",
"wXwXwXwXwXwX$ c J.J.J.T..X+X.X+XXXXXXXXX.XXX.XXX.XoX.X.XXXXX.X.X.X.X[.I.K.J.R l $ wXwXwXwXwXwXwXwXwX",
"wXwXwXwXwXwX. v H.J.J.J.T..X+X+XXX.XXXXXoX.XXXXXXXXXoX.X[.XX[.+XXX'.W.J.J.J.R > wXwXwXwXwXwXwXwXwXwX",
"wXwXwXwXwXwX. v J.J.J.J.J.Y..X.XXXXXXXXX.XXXXX.X.X.XXXXXXX+X+X[..XI.K.J.J.J.J.> wXwXwXwXwXwXwXwXwXwX",
"wXwXwXwXwXwXwX1 H H.J.H.J.P.T..X+X.X.XXXXX.X.XXXoXoXXXXX.XXX[.[.I.K.J.K.J.H.b < wXwXwXwXwXwXwXwXwXwX",
"wXwXwXwXwXwXwXwX$ L H.H.J.J.J.]. X.XXXXXoXXXXXXX.X.XXXXX XXX[.W.K.J.J.J.Y H . wXwXwXwXwXwXwXwXwXwXwX",
"wXwXwXwXwXwXwXwXwX$ L H.J.J.J.K.T.XXXX.X.X.XoX.X.XXXXXXXXX[.^.K.J.J.J.R b $ wXwXwXwXwXwXwXwXwXwXwXwX",
"wXwXwXwXwXwXwXwXwXwX< b H.J.J.J.P.!.oX.XoX.X.X.XoX.XXXXXXX!.P.K.J.J.H.l = wXwXwXwXwXwXwXwXwXwXwXwXwX",
"wXwXwXwXwXwXwXwXwXwXwX> c H.J.J.J.I.!. X.X+X+XoXXXoX+X XT.I.J.J.J.Y c < wXwXwXwXwXwXwXwXwXwXwXwXwXwX",
"wXwXwXwXwXwXwXwXwXwXwXwX& b Y T T T T P.Q.Q.Q.Q.T.Q.T.I.Y Y Y I L c $ wXwXwXwXwXwXwXwXwXwXwXwXwXwXwX",
"wXwXwXwXwXwXwXwXwXwXwXwXwX  $ $ & < , 1 1 1 1 1 1 1 l 3 l > * * $   wXwXwXwXwXwXwXwXwXwXwXwXwXwXwXwX",
"wXwXwXwXwXwXwXwXwXwXwXwXwXwX  $ . > > > , 1 3 , 1 1 3 l , > $ + $ wXwXwXwXwXwXwXwXwXwXwXwXwXwXwXwXwX",
"wXwXwXwXwXwXwXwXwXwXwXwXwXwX% l B B B B V / ~ ~ ~ ~ ~ ~ ~ ~ ~ J . wXwXwXwXwXwXwXwXwXwXwXwXwXwXwXwXwX",
"wXwXwXwXwXwXwXwXwXwXwXwXwXwX& <././././.{.8X0X0X0X0X0X0X0X0XqX<.  wXwXwXwXwXwXwXwXwXwXwXwXwXwXwXwXwX",
"wXwXwXwXwXwXwXwXwXwXwXwXwXwXO & - & - - - 9 4 4 S g 9 F 4 4 4 ; . wXwXwXwXwXwXwXwXwXwXwXwXwXwXwXwXwX",
"wXwXwXwXwXwXwXwXwXwXwXwXwXwXwXwXwXwXwXwXwXwXwXwXwXwXwXwXwXwXwXwXwXwXwXwXwXwXwXwXwXwXwXwXwXwXwXwXwXwX",
"wXwXwXwXwXwXwXwXwXwXwXwXwXwXwXwXwXwXwXwXwXwXwXwXwXwXwXwXwXwXwXwXwXwXwXwXwXwXwXwXwXwXwXwXwXwXwXwXwXwX",
"wXwXwXwXwXwXwXwXwXwXwXwXwXwXwXwXwXwXwXwXwXwXwXwXwXwXwXwXwXwXwXwXwXwXwXwXwXwXwXwXwXwXwXwXwXwXwXwXwXwX"
};
