/* XPM */
static char *result[] = {
/* columns rows colors chars-per-pixel */
"50 50 232 2 ",
"   c #331A1A",
".  c #1E162B",
"X  c #2C1A27",
"o  c #28162B",
"O  c #1E213C",
"+  c #2B2239",
"@  c #3A2839",
"#  c #3D282E",
"$  c #66161D",
"%  c #670D0F",
"&  c #4C2A1C",
"*  c #542F1E",
"=  c #441328",
"-  c #551425",
";  c #550F24",
":  c #651924",
">  c #761D39",
",  c #56212B",
"<  c #573627",
"1  c #4C3637",
"2  c #573936",
"3  c #502F2E",
"4  c #663C27",
"5  c #6D3138",
"6  c #621B1D",
"7  c #5E4533",
"8  c #68442D",
"9  c #72462B",
"0  c #624534",
"q  c #634836",
"w  c #654A38",
"e  c #6A4739",
"r  c #795438",
"t  c #784F34",
"y  c #292647",
"u  c #342C45",
"i  c #3A3A59",
"p  c #2C2F56",
"a  c #373B65",
"s  c #2F3366",
"d  c #483547",
"f  c #4F344C",
"g  c #6E344D",
"h  c #593E6B",
"j  c #643E6B",
"k  c #3B416F",
"l  c #3D477D",
"z  c #3D497D",
"x  c #3B4375",
"c  c #3E4054",
"v  c #5A4547",
"b  c #494259",
"n  c #5E4957",
"m  c #684A46",
"M  c #755649",
"N  c #785B53",
"B  c #6E4D48",
"V  c #7D6455",
"C  c #7B614D",
"Z  c #484767",
"A  c #5A4B67",
"S  c #5B5569",
"D  c #4B4D74",
"F  c #404A7C",
"G  c #454976",
"H  c #4E5176",
"J  c #4B537B",
"K  c #515375",
"L  c #54567A",
"P  c #545A7C",
"I  c #59587B",
"U  c #594978",
"Y  c #66476C",
"T  c #695D6A",
"R  c #715D6D",
"E  c #754972",
"W  c #665977",
"Q  c #70476B",
"!  c #776777",
"~  c #7E7077",
"^  c #96151B",
"/  c #8A1B26",
"(  c #961B22",
")  c #961624",
"_  c #8C1529",
"`  c #A91727",
"'  c #B51726",
"]  c #A81F35",
"[  c #B61C30",
"{  c #962322",
"}  c #8B213A",
"|  c #852938",
" . c #822D25",
".. c #A92137",
"X. c #A92139",
"o. c #A52036",
"O. c #CB1D2D",
"+. c #C61D2C",
"@. c #D31D2E",
"#. c #DB1D2D",
"$. c #D81D30",
"%. c #C01D30",
"&. c #E0212F",
"*. c #8A5838",
"=. c #955836",
"-. c #864D2C",
";. c #8D623A",
":. c #92643C",
">. c #94693C",
",. c #9A6D3D",
"<. c #AA6939",
"1. c #B16E3C",
"2. c #B4723C",
"3. c #AE5925",
"4. c #CD7231",
"5. c #863842",
"6. c #A93751",
"7. c #8C6244",
"8. c #946C43",
"9. c #9C6D43",
"0. c #946745",
"q. c #9D7649",
"w. c #856758",
"e. c #987555",
"r. c #936D51",
"t. c #A77848",
"y. c #A37A54",
"u. c #AF6F40",
"i. c #8B7574",
"p. c #A37F67",
"a. c #885B40",
"s. c #AE824E",
"d. c #B4854C",
"f. c #AD8455",
"g. c #B28251",
"h. c #BB8D55",
"j. c #B78854",
"k. c #BF9859",
"l. c #BA9357",
"z. c #B7916B",
"x. c #96867F",
"c. c #C29A5B",
"v. c #C8975A",
"b. c #CC9657",
"n. c #D4A55A",
"m. c #C39C63",
"M. c #CDA362",
"N. c #CCA56B",
"B. c #D5A862",
"V. c #D5A967",
"C. c #D8B16B",
"Z. c #C6B27D",
"A. c #E4BA6D",
"S. c #E5BB72",
"D. c #F0A653",
"F. c #EBC374",
"G. c #EBC479",
"H. c #F4CD7A",
"J. c #F2C977",
"K. c #F9D27C",
"L. c #F9D47D",
"P. c #EAC16F",
"I. c #3E4D81",
"U. c #424C83",
"Y. c #4B5B8D",
"T. c #4A5686",
"R. c #555784",
"E. c #455A95",
"W. c #465E9B",
"Q. c #4A5D97",
"!. c #565C95",
"~. c #534E83",
"^. c #615D87",
"/. c #665F9A",
"(. c #5B628C",
"). c #4C6499",
"_. c #596799",
"`. c #5E749D",
"'. c #6A628B",
"]. c #666589",
"[. c #7A6D85",
"{. c #67719A",
"}. c #716F96",
"|. c #4C68A4",
" X c #516DA9",
".X c #536AA6",
"XX c #5A72AA",
"oX c #5978B6",
"OX c #796EA2",
"+X c #766DA1",
"@X c #6677A6",
"#X c #7870A2",
"$X c #6475AC",
"%X c #5478C2",
"&X c #687EC0",
"*X c #897689",
"=X c #8C7B92",
"-X c #5F80BA",
";X c #6B82BC",
":X c #7585B4",
">X c #5B8BD2",
",X c #6889C7",
"<X c #7194CE",
"1X c #6D93D3",
"2X c #6D8FCF",
"3X c #6D9BE1",
"4X c #79ACE8",
"5X c #77B6FC",
"6X c #75B0F2",
"7X c #96879B",
"8X c #988483",
"9X c #AA9498",
"0X c #988BA5",
"qX c #9D95AA",
"wX c #8C93B9",
"eX c #A395AA",
"rX c #A69BB5",
"tX c #B59EA9",
"yX c #ADA3BB",
"uX c #B1A8BE",
"iX c #9CA0B7",
"pX c #C7B281",
"aX c #FEDA83",
"sX c #FBD681",
"dX c #898FC5",
"fX c #8B90C4",
"gX c #8A91C9",
"hX c #B4ADC8",
"jX c #B6B0CD",
"kX c #82B4EB",
"lX c #84A4DA",
"zX c None",
/* pixels */
"zXzXzXzXzXzXzXzXzXzXzXzXzXzXzXzXzXzXzXzXzXzXzXzXzXzXzXzXzXzXzXzXzXzXzXzXzXzXzXzXzXzXzXzXzXzXzXzXzXzX",
"zXzXzXzXzXzXzXzXzXzXzXzXzXzXzXzXzXzXzXzXzXzXzXzXzXzXzXzXzXzXzXzXzXzXzXzXzXzXzXzXzXzXzXzXzXzXzXzXzXzX",
"zXzXzXzXzXzXzXzXzXzXzXzXzXzXzXzXzXzXzXzXzXzXzXzXzXzXzXzXzXzXzXzXzXzXzXzXzXzXzXzXzXzXzXzXzXzXzXzXzXzX",
"zXzXzXzXzXzXzXzXzXzXzXzXzXzXzXzXzXzXzXzXzXzXzXzXzXzXzXzXzXzXzXzXzXzXzXzXzXzXzXzXzXzXzXzXzXzXzXzXzXzX",
"zXzXzXzXzXzXzXzXzXzXzXzXzXzXzXzXzXzXzXzXzXzXzXzXzXzXzXzXzXzXzXzXzXzXzXzXzXzXzXzXzXzXzXzXzXzXzXzXzXzX",
"zXzXzXzXzXzXzXzXzXzXzXzXzXzXzXzXzXzXzXzXzXzXzXzXzXzXzXzXzXzXzXzXzXzXzXzXzXzXzXzXzXzXzXzXzXzXzXzXzXzX",
"zXzXzXzXzXzXzXzXzX% $ zXzXzXzXzXzXzXzXzXzXzXzXzXzXzXzXzXzXzXzXzXzXzXzXzXzXzXzX$ % zXzXzXzXzXzXzXzXzX",
"zXzXzXzXzXzXzXzXzXzXN 7 7 7 7 0 w q w w w w w w q q q q q q q q q q w q 0 0 < 2 zXzXzXzXzXzXzXzXzXzX",
"zXzXzXzXzXzXzXzXzXzXw l.c.k.k.c.k.k.c.c.k.k.k.k.c.k.c.k.k.c.k.k.k.k.k.k.k.k.l.< zXzXzXzXzXzXzXzXzXzX",
"zXzXzXzXzXzXzXzXzXzX< 8.>.t.>.:.,.:.,.:.>.>.>.t.;.,.>.,.9.;.9.>.:.t.;.>.,.>.>.* zXzXzXzXzXzXzXzXzXzX",
"zXzXzXzXzXzXzXzXzX>.t.h.>.h.t.:.h.:.j.:.t.:.q.y.:.j.=.t.s.:.s.9.9.g.:.g.j.>.h.t.8.zXzXzXzXzXzXzXzXzX",
"zXzXzXzX(.(.I ! B t.J.K.A.aXF.H.J.J.aXB.F.P.C.aXM.sXA.S.K.n.aXaXK.L.sXS.L.H.F.K.d.m ].].(._.zXzXzXzX",
"zXzXzXzX1 b S A M S.V.B.C.C.n.H.b.A.L.C.J.C.c.aXv.sXV.C.L.B.F.aXH.B.H.n.M.L.c.M.A.B S S f # zXzXzXzX",
"zXzXe.3 0 y.q.q.e.f.*.d.M.>.j.M.t.v.V.<.M.s.s.C.0.C.t.f.C.d.t.c.C.8.l.c.;.c.l.9 f.t.q.q.y.0 3 8.zXzX",
"zXzXw.1 H I P P H k G P H H K D D L K J P H H I G I K D L L K H P K P H L H P D G H P P L D @ 9 zXzX",
"zXzXzXb _.Y.Y.Q.).).E.W.E.).W.|.|.|.Q./.!.E.!.!.!.!.!.!.E.!./.).W.W.).W.).E.E.E.E.).E.Y.Y.`.u zXzXzX",
"zXzXzXzXzXzXy ).oX X X Xa U.~.p |. XG ; U a - : : $ $ ; F h - U. X|.p L D a  X|. XoX!.o zXzXzXzXzXzX",
"zXzXzXzXzXzXzX@X6X3X,X$XI E > 1 {.).%XU.oX{.t.<.=.-.u.u.#X%XU.%X).@Xu g E ^./.,X3X4X`.zXzXzXzXzXzXzX",
"zXzXzXzXzXzXzXd @X_.o = > ) ' g [.a  XoX Xn 2.u.<.=.u.1.v  XoX XT.iX5 ' _ > X + (.:XzXzXzXzXzXzXzXzX",
"zXzXzXzXzXzXzXzXzXzXzXs j ^ ` f ,X>X).).Y.m 2.=.-.-.=.1.v E.Q.W.>XoXf ' ^ j a zXn zXzXzXzXzXzXzXzXzX",
"zXzXzXzXzXzXzXzXzXzXzXQ._.:  .S 6X5X5X5X5XT u.=.=.=.<.u.T 6X5X5X5X6XA $ : _.E.zXzXzXzXzXzXzXzXzXzXzX",
"zXzXzXzXzXzXzXzXzXzXzX)._.0.b.M ).2X2X2X<Xn u.1.1.1.1.u.n ,X<X<X2X(.w.v.7._.E.zXzXzXzXzXzXzXzXzXzXzX",
"zXzXzXzXzXzXzXzXzXzXzXZ E / { / } } } } } / ( ( ( ( ) ) _ } 5.} } > / { / E a zXzXzXzXzXzXzXzXzXzXzX",
"zXzXzXzXzXzXzXzXX @ @ X : @.$._ ] ] ] o.........X.X.X.X.X.[ ] ] ] ] ) #.@.: X o + . zXzXzXzXzXzXzXzX",
"zXzXzXzXzXzXzXb $X,X:X,XY %.O.g #XOX#X#X#X#X#X+X#X#XOXOXOXOX+X+X#X#Xj @.[ R.,X,X,X$XZ zXzXzXzXzXzXzX",
"zXzXzXzXzXzXzXzX@X:X;X&XU %.O.Q gXdXgXfXfXdXdXdXfXfXfXfXfXfXfXdXfXgXE @.[ L oXXX;X{.zXzXzXzXzXzXzXzX",
"zXzXzXzXzXzX8.4 8 8 M < ; +.' , f M m B w.m C C V M C C B N B m B f , +.' = , r t e < 0.zXzXzXzXzXzX",
"zXzXzXzXzXr.e f.t.B.A.s.*.Q , 0.l.J.j.S.J.h.F.H.H.P.H.J.b.G.A.g.S.l.7.- g *.t.A.M.t.q.r 7.zXzXzXzXzX",
"zXzXzXzXe ! XXS M pXZ.q.m.! 2 j.l.J.M.l.G.9.m.G.v.S.F.c.t.G.f.N.H.k.f.1 e V.e.Z.Z.M B $X! t zXzXzXzX",
"zXzXzXzXi.@ oX_.oX@XI R.5.{ | w.N x.8XW ~ *XY *XR i.! S i.~ n *X8XV V 5.( 5 (.R.`. XXX.Xu zXzXzXzXzX",
"zXzXzXzXzXzXzXi ).p y a f ) 6.U x x z I.l I.l l l l z z U.z I.U.x a R.6.' f k y O ).$XzXzXzXzXzXzXzX",
"zXzXzXzXzXzXzXzXzXzXu <XU O.@.h k zXzXzXzXzXzXzXzXzXzXzXzXzXzXzXzXa h O.@.W <Xu X zXzXzXzXzXzXzXzXzX",
"zXzXzXzXzXzXzXzXzXzXi 4X].O.&.Y z zXzXzXzXzXzXzXzXzXzXzXzXzXzXzXzXF Y $.@.'.kXi zXzXzXzXzXzXzXzXzXzX",
"zXzXzXzXzXzXzXzXzXzXb 4X].O.$.Y F zXzXzXzXzXzXzXzXzXzXzXzXzXzXzXzXF A @.@.'.kXi zXzXzXzXzXzXzXzXzXzX",
"zXzXzXzXzXzXzXzXzXzXb 4X'.+.#.j F zXzXzXzXzXzXzXzXzXzXzXzXzXzXzXzXF j $.@.'.6Xi zXzXzXzXzXzXzXzXzXzX",
"zXzXzXzXzXzXzXzXzXzXc 4X'.O.&.Y F zXzXzXzXzXzXzXzXzXzXzXzXzXzXzXzXF h $.@.'.kXb zXzXzXzXzXzXzXzXzXzX",
"zXzXzXzXzXzXzXzXzXzXb 3XR.` [ Z z zXzXzXzXzXzXzXzXzXzXzXzXzXzXzXzXF h ` ] !.kXi zXzXzXzXzXzXzXzXzXzX",
"zXzXzXzXzXzXzXzXzXeXA 4X-XI ^..XI.zXzXzXzXzXzXzXzXzXzXzXzXzXzXzXzXF T.W ^.,XkXi zXqXzXzXzXzXzXzXzXzX",
"zXzXzXzXzXzXzXzXzXqX0X4X6X1X.X1XI.zXzXzXzXzXzXzXzXzXzXzXzXzXzXzXzXF Q.,X,X6XkX}.[.eXhXzXzXzXzXzXzXzX",
"zXzXzXzXzXzXzXqX0XqXyXwX].w.a.~.z zXzXzXzXzXzXzXzXzXzXzXzXzXzXzXzXz H r.0.].wX0X*X=XqXqXzXzXzXzXzXzX",
"zXzXzXzXzXzX7XrXuXi.i.yX! p.,.U l zXzXzXzXzXzXzXzXzXzXzXzXzXzXzXzXx U ,.0.[.0X0X*X=XyXhXzXzXzXzXzXzX",
"zXzXzXzXzXzX[.rX=X0XR =XeXn u  Xs zXzXzXzXzXzXzXzXzXzXzXzXzXzXzXzXs |.d n rXrX=XrXyX0XrXzXzXzXzXzXzX",
"zXzXzXzXzX}.[.i.d 0XeX=XyX! Z !.o zXzXzXzXzXzXzXzXzXzXzXzXzXzXzXzX. U.U R hXjXeXjXjX0X*X~ zXzXzXzXzX",
"zXzXzXzXzXi.9Xp.r.9X*XtX7XT A 1 8 zXzXzXzXzXzXzXzXzXzXzXzXzXzXzXzX4 1 Z n =X9Xi.eXyXeXz.y.zXzXzXzXzX",
"zXzX*.8 q.n.g.d.b.=.y.y.e S @X2 c.s.zXzXzXzXzXzXzXzXzXzXzXzXzXzXg.v.2 XXS 2 7.q.t i.e.b.D.4.4.b.zXzX",
"zXzX0 * 9 -.8 & 4 * < &   d Z 1 *.r < zXzXzXzXzXzXzXzXzXzXzXzXzXr *.1 k i   & & & * < -.4.3.3.9 zXzX",
"zXzXzXzXzXzXzXzXzXzXzXzXzXzXzXzXzXzXzXzXzXzXzXzXzXzXzXzXzXzXzXzXzXzXzXzXzXzXzXzXzXzXzXzXzXzXzXzXzXzX",
"zXzXzXzXzXzXzXzXzXzXzXzXzXzXzXzXzXzXzXzXzXzXzXzXzXzXzXzXzXzXzXzXzXzXzXzXzXzXzXzXzXzXzXzXzXzXzXzXzXzX",
"zXzXzXzXzXzXzXzXzXzXzXzXzXzXzXzXzXzXzXzXzXzXzXzXzXzXzXzXzXzXzXzXzXzXzXzXzXzXzXzXzXzXzXzXzXzXzXzXzXzX",
"zXzXzXzXzXzXzXzXzXzXzXzXzXzXzXzXzXzXzXzXzXzXzXzXzXzXzXzXzXzXzXzXzXzXzXzXzXzXzXzXzXzXzXzXzXzXzXzXzXzX"
};
