/* XPM */
static char *result[] = {
/* columns rows colors chars-per-pixel */
"50 50 214 2 ",
"   c #494E2E",
".  c #5E5721",
"X  c #4F4B34",
"o  c #4F4838",
"O  c #524E35",
"+  c #4F5634",
"@  c #55543C",
"#  c #5B553D",
"$  c #565C3A",
"%  c #5B5B3B",
"&  c #595935",
"*  c #645D2D",
"=  c #605922",
"-  c #635C33",
";  c #615C3A",
":  c #586031",
">  c #59623B",
",  c #6A6535",
"<  c #636A3E",
"1  c #67623F",
"2  c #534E4F",
"3  c #4F504A",
"4  c #4F5143",
"5  c #545544",
"6  c #5C5644",
"7  c #565944",
"8  c #5B5B44",
"9  c #555A4B",
"0  c #5B5C4C",
"q  c #54564B",
"w  c #5C5D53",
"e  c #5B5C5A",
"r  c #575757",
"t  c #635D43",
"y  c #615D4C",
"u  c #695E4A",
"i  c #615D51",
"p  c #615D5D",
"a  c #5E6344",
"s  c #5D614D",
"d  c #5E6254",
"f  c #5C6850",
"g  c #5D635B",
"h  c #646345",
"j  c #6A6546",
"k  c #636A43",
"l  c #6B6C46",
"z  c #63644D",
"x  c #69634C",
"c  c #666B4B",
"v  c #6B6C4D",
"b  c #736D44",
"n  c #706D4E",
"m  c #6D734D",
"M  c #71724C",
"N  c #737A4F",
"B  c #7B7447",
"V  c #636454",
"C  c #6B6654",
"Z  c #666A54",
"A  c #6B6C54",
"S  c #64655B",
"D  c #6A625C",
"F  c #656A5C",
"G  c #6A6C5C",
"H  c #726C54",
"J  c #736D5C",
"K  c #7A6F5B",
"L  c #6E7153",
"P  c #6F7A51",
"I  c #6E725B",
"U  c #737354",
"Y  c #737A53",
"T  c #797E57",
"R  c #72745C",
"E  c #7A745B",
"W  c #747B5C",
"Q  c #7A7B5C",
"!  c #7A7453",
"~  c #5D5E62",
"^  c #5D5F6B",
"/  c #625860",
"(  c #685D63",
")  c #5D6263",
"_  c #5F6963",
"`  c #5B676A",
"'  c #5E716B",
"]  c #5E6B73",
"[  c #636463",
"{  c #6A6663",
"}  c #656A64",
"|  c #6B6C63",
" . c #63656A",
".. c #696769",
"X. c #646C6B",
"o. c #6B6D6B",
"O. c #736E64",
"+. c #726D6B",
"@. c #657064",
"#. c #6D7264",
"$. c #6C7966",
"%. c #66716B",
"&. c #6D736C",
"*. c #6C7B6C",
"=. c #727464",
"-. c #797364",
";. c #757B63",
":. c #7A7C64",
">. c #73746B",
",. c #7B756B",
"<. c #757B6C",
"1. c #7B7B6C",
"2. c #646672",
"3. c #656D73",
"4. c #6B6E73",
"5. c #6A6D79",
"6. c #666E79",
"7. c #716F75",
"8. c #716F7A",
"9. c #7A6F77",
"0. c #6C7373",
"q. c #647C72",
"w. c #6D7A73",
"e. c #6C717A",
"r. c #6E7D78",
"t. c #667277",
"y. c #737573",
"u. c #797572",
"i. c #757A74",
"p. c #7B7C74",
"a. c #73747B",
"s. c #7A767C",
"d. c #757B7B",
"f. c #7B7C7C",
"g. c #817A48",
"h. c #847D53",
"j. c #837A63",
"k. c #817D6A",
"l. c #887D6B",
"z. c #817C72",
"x. c #807778",
"c. c #827E7D",
"v. c #75815A",
"b. c #7B835D",
"n. c #7C8263",
"m. c #76826D",
"M. c #7C816B",
"N. c #7F8A6C",
"B. c #778562",
"V. c #6C8176",
"C. c #6C8179",
"Z. c #738274",
"A. c #7D8273",
"S. c #76827B",
"D. c #7C837C",
"F. c #7D8B7B",
"G. c #788A7A",
"H. c #86804C",
"J. c #858154",
"K. c #898057",
"L. c #828466",
"P. c #82846D",
"I. c #858A6B",
"U. c #8A8C6F",
"Y. c #888667",
"T. c #908569",
"R. c #838574",
"E. c #898577",
"W. c #858A74",
"Q. c #898C75",
"!. c #82847C",
"~. c #858A7C",
"^. c #8A8C7D",
"/. c #88867A",
"(. c #978D79",
"). c #87907F",
"_. c #8F917C",
"`. c #94907C",
"'. c #959379",
"]. c #6E7681",
"[. c #757582",
"{. c #757A82",
"}. c #7B7D83",
"|. c #767B88",
" X c #7C7C89",
".X c #817E83",
"XX c #7C8382",
"oX c #778089",
"OX c #7C828C",
"+X c #7F8190",
"@X c #838484",
"#X c #898684",
"$X c #858A82",
"%X c #8A8B84",
"&X c #85858A",
"*X c #84898B",
"=X c #8B8B8B",
"-X c #88868B",
";X c #948F82",
":X c #918E8E",
">X c #8D9183",
",X c #8C928B",
"<X c #849082",
"1X c #929584",
"2X c #93948C",
"3X c #9B9989",
"4X c #8B8D91",
"5X c #938E92",
"6X c #8C9391",
"7X c #8E9890",
"8X c #939494",
"9X c #979894",
"0X c #95949A",
"qX c #9A9B98",
/* pixels */
"q | !.}.s.s.a.4.o.g p.p.o.a. X Xs.XX}.i.&.&.d.}.}. X.X Xy.3 S F m a a a c a c I R z R R 0 G Q.k.s.3.",
"G !.9XqX0X0X0X0X!.>./.p.o.f.}. XXX}.d.w.>.y.i.f.a.[. X}.c.p 1.R.P.B.B.;.;.W $.:.I V I -.t -.`./.=X}.",
"s ;.%X%X%X=X2X9XA.G 1.>.S u.}.@X}.d.0.&.&.*.y.u.}.}..X}.@X| ^._.Q.I.I.M.=.I I I ,.G =.=.V -.;X^.@Xp.",
"$ W Q.^./.%X%X1XA.I P.M.R A.=X=X}.d.0.&.>.i.i.D.@X}.}.a.p.S R.P.M.m.:.=.I Z F I G F | F 0 p >.+.P.j.",
"> T U.Q.P.R.Q.W.I.R L.:.Z =.<.u.X.X.} @.G S } i.0.....[ >.0 1.L.A.<.<.=.@.#.<.A.<.,.p.>.o.O.,.>.l % ",
": m b.b.;.;.;.;.W c W A 7 S { { %.} @.$.} f S &.o.4.4.o.>.0 :.M.1.S.i.*.@.u.!.%X@X%X=X%X%X=X=X#XJ.b ",
"< N b.W ;.:.P.1.:.Z :.W Z 1.@X%X,X$X<X>X~.:.<.A.u.d.s.>.<.7 W :.>.i.d.%.| 0.f.XXp.@X!.f..X#X@X-XJ., ",
"l N W R =.R.R.R.N.A n.;.I !.8XqX8X$X~.<XW.m.@.#.| o.y.>.#.5 R Q d.XXXXu.0.y.f.}.}.*X.Xf.@X-X#X-Xh., ",
"l P =.=.,.A.!.R.R.Z ;.R.V | =X-X$X$XF.N.A.;.@.>.&.o.f.>.| 7 L I.f.d.d...0.XX}.f.}.@X.X}.-X&X@X-XK.- ",
"a W 1.<.f.!.@X!./.S =.1.p [ @X|.i.A.i.<.m.F Z #.>.o.&.{ | 7 a h ] [ 3.` 3.XXd.}.0.f.f.XX=X=X@X4XT., ",
"V =.!.!.@X-X@X!.^.#.p.~.| o.}.y.&.i.i.m.m.W #.1.!.y.p.y.<.V A v X.3.a.3.0.@Xd.d.f.@X@X&X=X=X$X=XT.j ",
"d =.!.D.}.@X@Xf.| d >./.>.o.s.a.&.w.*.$.<.G F &.o.o.u.} G 9 A W ' } e.' 3.f.y.w.f.D.D.i.!.!.!.%X(.H ",
"5 w { [ [  ...S F V =.R.<.1.=X8X$XXXZ.<.Z.=.F } } [ a.| >.w A A _ _ e._ %.XXD.D.i.d.i.S.%X,X,X2X(.j.",
"p.~.%X@X@X@X@Xp.=.Z I =.G G R.>XXXD.w.<.A.i.#.i.@Xa.@X@X2XR.;.z @.X.w.} } D.i.G.&.<.>.<.~.^.A.A.l.u ",
"M.R.!.p.f.f.p.| S a 7 a 8 7 d F ) _ g S | I %.A.@Xf.&X@XqX^.M.c _ _ &.g g @.g } @.@.d d #.>.G S K # ",
"R.~./.f.f.c.>.S z 8 a P n.:.R =.X.i.&.@.#.| i.=X.X@X5X@X9X^.1XQ.%.%.G.*.&.S.<.Z./.<.S f m.W.R.~.j.u ",
"=X:Xc.,.,.,.O.J C o H k.,.R.1.E. X2.3.+.>.,.=.%Xc.@X4X4X6X7X,X<XX.0.q.q.q.q.V.V.i.i.#.V /.F.F.F.h.t ",
"2X3X^.p.z.k.O.J 6 o C ,.z./.1.p.5.^ 7.i.p.,.=.!.#X=X4X4X6X6X7XXX) 0.S.r.V.V.V.w.D.!.u.S $X~.G.Z.h.% ",
"0 A Z z C x y u t y J +.R.@X+.y.2. .s.i.>.=.V | o.4.y.5.4.q.$.@.) w.D.r.q.C.C.w.D.#Xf.[ $XD.S.w.h.; ",
"  a c x v j j H K ,.-.{ s.c.7.8.5. .y.| S F 0 d S .... . .%.%.%.} d.XXq.' q.oXr.f..Xs.p s.XXXXr.! - ",
"< N Q T ! v j E k.c.-.{ u.s.8.8.5.[ | S V G w i o.7.a.4.X.e.w.w...u.S.w.%.V.G.f.s..X9./ 9.[.}.{.B . ",
"< Y ! N M h t H O.j.D +.f.s.}.8.e.[ | | =.R 0 9 { 4.4.3.`  ._ X.i | u.w.r.d.S.d.f..Xx.p .X9.a.{.g.. ",
"> m m L m h j E J C y ,.f.y.@X0.f.} &.<.;.G 5 0 O.y.[.e.3.X.3.%.u y Z $.<.$.&.>.+.9.+.( .X9.0.}.g.* ",
"s V z c x 8 7 H E z 6 ,.1.#.$Xi.i.g | ;.=.A 8 G | 7.s.5.4.3.5.q.v 8 a f Z f f F C p D D #X9.0.D.h.* ",
"i.A.^.^.R.6 C Z U @ z R -.A B.:.0.w 9 V Z 7 7 G >.e 3.7.3.5._ X.b % U L.n.N.B.:.k.;X3X-.O.p.&.Z.h.j ",
"}.XX@X@X!.5 i t z X % + $ + c > _ w d 1.W.M.k.^.| 2 )  .) ) ) ) b & M T v.b.W n.l.(.(.C y | f g u # ",
"|.|..X&X#XD =.-.E U Q h k c b.m 0.[ | R.`.Q.Q.1X#Xo.}.}.d.XXw.S.b - b N N v.v.B.Q.'.(.J R A.m.Z.k.,.",
"|.[. X-X8X+.z.R.k.:.L.v Y P I.N.*X&.| <.M.:.P.^.p.[ ..4.X.%._ ' M , m N P v.v.b.T.U.E.A =.W.B.G.y.u.",
"OX X}.&X*XF ,.>.=.J R Z W A m.N.*Xy.} #.<.:.R._.^.o.y.u.i.i.%.$.! ; U W W B.v.N.P.P.l.F =.A.$.$.f.f.",
"OXXX@X@X#XS +.=.,.=.<.=.~.#.m.$XOXy.| =.1.P.P.E.!.} o.0.%.i.@.@.E u E ;.$.B.m.A.~.Q.R.O.<.F.V.*.0.a.",
"F.D.$X%X%XF 1.k.=.1.1.{ !.Z.D.XX*Xa.o.>.1.M.:.<.R.{ &.i.i.A.$.$.-.y I $.$.m.m.~.1.p.,.{ &.D.w.V.d.}.",
"F.!.>X%X%XS ,.,.O.!.p.e @X*X4XOX4Xs.y.<.A.k.P.R.p.e o.i.Z.G.*.m.-.0 S F F m.Z.~.$X/.f.| &.G.w.G.{.XX",
"M.W.W.3XW.S ;.=.&.} o.{ 4.0X6X}.{.a.&.#.;.:.:.M.;.#.| w.S.r.V.V.R 8 :.O.,.+.p.c..X#Xu.| 1.P.B.M.D.f.",
"R.W.M.R.@.9 | S | { %.e e s.}.y.5...{ S Z A c V V S } y.d.r.w.w.-.z k.<.c.p..X@Xs.=Xf.F >.R.P.N.@XXX",
"d S s V V | >X%X$X@X2Xu.o.&X4X=X*X@X!.R.L.L.Q W V S >.D.XXXXS.G.;.y ,.=.p.u.}.}.}.4Xf.e w F F d ~ ) ",
"G | F f d >.,X$X%X$X9XXX0.=X8X8X8X=X^.Q.W.Y.n.Q z F u.f.XXXXS.D.,.0 O.S o...5.s. .a.0.~ e { &.} 4.0.",
"i.i.i.} S i.!.u.D.f.#Xi.&.@X@X@X!.!.1.:.Q E U H t F { o.o.o.%.&.:.0 =.| u.4.a.a.8.8.a.[.0.4.y.d.4.4.",
"o.} y.o.{ f.f.f.A.p.=Xf.>.!.D.p.%X!.1.:.T T E E C O.O.{ [ ..o.o.Z 6 1.p.!.u.s.s.&Xa.|.*Xe.)  .X.a.a.",
"a.o.s...g 0.o.&.f.u.!.>.} i.u.i.p.1.W R ! U v x k.x.+... .+.>.o.z 7 1.1.p.>.>.y.5. .t.}.4. .4.4.5.5.",
"f. .s.X.~ y.y.!.f.i.$Xy.F <.p.!.=.=.J U H n j 8 ,.,.+.( [ o.| F U s L.=.=.S o.i..Xy.}.f...3.w.[ e.[.",
"8.4.y.4.~ ) o...| [ [ d d >.i.#.>.>.L L Q j @ x -.x.x.2 { o.| | c c W n.=.F F #.&.i.i.D.i._ X.} [.[.",
"~ ~ [  .e [ &.>.>.g w S g V F V | =.F A A % o u l.x.c.p +.>.,.,.Y W n.M.W Z d d G @.g @.} g &.&.` ` ",
"y.y.i.i.o.>.@X$X!.&.| 1.<.#.=.#.} #.@.G z @ @ J +.+.u.2 p { G | Z L Y ;.W Z s 9 | @.d S g g w.i.d.s.",
"i.u.d.u.| &.p.!.<.} #.<.<.<.>.| %.&.>.#.Z s G z.x.u.s.2 p F S F F A I =.<.#.| f F *.} &.@._ w.*.}.{.",
"| { #.#.S #.p.A.S F #.#.=.A.<.w t.X.%.#.G #.z.#X:X:X5X..i.z.R.N.~./.D.!.F.f.i.&.[ &.} %.%._ t.o.4.4.",
">.#.#.#.#.&.M.<.F =.A.1.A._.R.s ] ` ' } F >./.@X#X:X5X+.D./.~.Q.$X$XXXf.d.f.i.y.X.w.%.3.X.X.{.r.i.a.",
"<.I G | Z G G d F #.m.A.R.>Xp.9 6.` X.X.g &.@X!.f..X-X( i.A.M.M.a.[.s.e.s.d.a.t.3.d.3.3.3.t.OXoXy.d.",
"N.#.I #.#.#.I d I G <.>X1X1XA.S t.] t.q.g } !.f..X.X4X3.f.A.M.M.[. X X X[.|.d.e.2.{.e.e.6.6.|.].a.y.",
"H R L v A -.-.R J C J j.k.E x u G >.i.>.} o.d.d.XXw.XXd.0.f.f.!.,.<.1.i.i.u.,.;.t h h j x A O.,.,.>.",
"7 h 8 # 6 V C i i t 6 6 u t t # w D | | } &.d.XXXXd.OXi.S { S [ 0 w w e p i i y 8 t 1 % 8 8 u p w 0 "
};
