/* XPM */
static char *result[] = {
/* columns rows colors chars-per-pixel */
"50 50 256 2 ",
"   c #16122D",
".  c #060938",
"X  c #0C123A",
"o  c #191937",
"O  c #12143B",
"+  c #271E2D",
"@  c #1B203E",
"#  c #29282C",
"$  c #34292B",
"%  c #38352A",
"&  c #272638",
"*  c #35243A",
"=  c #393637",
"-  c #54261E",
";  c #47391E",
":  c #682D1A",
">  c #443929",
",  c #473635",
"<  c #563430",
"1  c #7B3D25",
"2  c #3D4137",
"3  c #5D4C19",
"4  c #665A1B",
"5  c #69621C",
"6  c #796F1D",
"7  c #4B4628",
"8  c #58532C",
"9  c #484739",
"0  c #564934",
"q  c #595439",
"w  c #71462B",
"e  c #645929",
"r  c #794538",
"t  c #675B37",
"y  c #635C35",
"u  c #5F613A",
"i  c #6B6424",
"p  c #696529",
"a  c #69642C",
"s  c #77672A",
"d  c #73732B",
"f  c #696437",
"g  c #726C37",
"h  c #747435",
"j  c #080F4B",
"k  c #0B1445",
"l  c #141D43",
"z  c #151844",
"x  c #141852",
"c  c #1D2444",
"v  c #1C2453",
"b  c #1B2456",
"n  c #252747",
"m  c #2B2C45",
"M  c #382D46",
"N  c #2D334B",
"B  c #393747",
"V  c #242B56",
"C  c #2D3555",
"Z  c #2C335C",
"A  c #383B56",
"S  c #2C3567",
"D  c #363D63",
"F  c #473848",
"G  c #533D48",
"H  c #443C56",
"J  c #3D4354",
"K  c #394167",
"L  c #464549",
"P  c #574A45",
"I  c #5E5848",
"U  c #494956",
"Y  c #5A4956",
"T  c #4C525A",
"R  c #575758",
"E  c #635C46",
"W  c #654A53",
"Q  c #665B57",
"!  c #755451",
"~  c #5C6253",
"^  c #6A6344",
"/  c #686644",
"(  c #65634C",
")  c #6A644B",
"_  c #6C6B4C",
"`  c #746D48",
"'  c #6C7144",
"]  c #6D724C",
"[  c #757848",
"{  c #666353",
"}  c #696756",
"|  c #6B6B54",
" . c #65635C",
".. c #6A655B",
"X. c #6B6B5B",
"o. c #716A59",
"O. c #6D7455",
"+. c #6C715D",
"@. c #757B53",
"#. c #747759",
"$. c #454964",
"%. c #4E4F62",
"&. c #555B65",
"*. c #585A64",
"=. c #6E5963",
"-. c #5B626A",
";. c #5E6571",
":. c #656463",
">. c #676767",
",. c #6B6C64",
"<. c #666C6C",
"1. c #6B6C6B",
"2. c #736D69",
"3. c #6D7264",
"4. c #68726B",
"5. c #6C716C",
"6. c #737364",
"7. c #747B63",
"8. c #7A7B67",
"9. c #73746D",
"0. c #767B6D",
"q. c #666B72",
"w. c #6B6E72",
"e. c #706F72",
"r. c #6C7374",
"t. c #697474",
"y. c #6D747A",
"u. c #6E797C",
"i. c #737573",
"p. c #797573",
"a. c #747A74",
"s. c #7A7B74",
"d. c #72767A",
"f. c #747B7C",
"g. c #7A7C7C",
"h. c #924E31",
"j. c #B65B2C",
"k. c #AC5D37",
"l. c #847829",
"z. c #837C34",
"x. c #D16F39",
"c. c #EA722A",
"v. c #FC7E2F",
"b. c #EA7C39",
"n. c #F47D36",
"m. c #FE7F31",
"M. c #8A594E",
"N. c #AB6B4D",
"B. c #B96A44",
"V. c #A2735C",
"C. c #91756E",
"Z. c #827D75",
"A. c #817F7B",
"S. c #CE754A",
"D. c #D77844",
"F. c #E57A40",
"G. c #CA7072",
"H. c #7E804F",
"J. c #7E8157",
"K. c #7D8068",
"L. c #79817B",
"P. c #7C817D",
"I. c #A48D1B",
"U. c #928532",
"Y. c #9D9438",
"T. c #AB9527",
"R. c #A59C35",
"E. c #B8A92D",
"W. c #D3B31B",
"Q. c #FF812E",
"!. c #FF8132",
"~. c #F6833B",
"^. c #C5B42D",
"/. c #C9B62E",
"(. c #DBC618",
"). c #F0DD1C",
"_. c #F5E21F",
"`. c #FEEE1C",
"'. c #FFF01D",
"]. c #D3C72E",
"[. c #DAC92A",
"{. c #D8CB37",
"}. c #E7D728",
"|. c #EAD62D",
" X c #E4D732",
".X c #FDED23",
"XX c #F3E628",
"oX c #FBEA29",
"OX c #8D8C4E",
"+X c #ADA44F",
"@X c #83836A",
"#X c #878678",
"$X c #82837D",
"%X c #968071",
"&X c #B48F78",
"*X c #CB9252",
"=X c #EE8D4A",
"-X c #CFB349",
";X c #C99173",
":X c #E89D68",
">X c #F5A678",
",X c #E9CC5C",
"<X c #184EB7",
"1X c #515A8E",
"2X c #6B778D",
"3X c #737786",
"4X c #747C82",
"5X c #7A7E81",
"6X c #767EA0",
"7X c #0D63C6",
"8X c #2A74CB",
"9X c #837C83",
"0X c #768182",
"qX c #7D8283",
"wX c #7C8288",
"eX c #7C8697",
"rX c #6582BC",
"tX c #3681CC",
"yX c #6F97CF",
"uX c #838584",
"iX c #868787",
"pX c #8B8A84",
"aX c #848689",
"sX c #8A8B8A",
"dX c #918E8E",
"fX c #93918B",
"gX c #949392",
"hX c #B8928D",
"jX c #BB9889",
"kX c #B8A19B",
"lX c #8A94AC",
"zX c #9099B1",
"xX c #B19CB3",
"cX c #97A3B8",
"vX c #A4A8BB",
"bX c #C89A8C",
"nX c #EF9491",
"mX c #D7A98D",
"MX c #EEB490",
"NX c #E9B69B",
"BX c #CAB4B5",
"VX c #FBB2A4",
"CX c #FCC79E",
"ZX c #F9CAA7",
"AX c #FBD1AA",
"SX c #F1C7B3",
"DX c #8FB6DD",
"FX c #AFB3C4",
"GX c #B0C3DB",
"HX c #A7C8E6",
"JX c #CCCDD4",
"KX c #EDD9CA",
"LX c #F4E2D0",
"PX c #CED8E6",
"IX c #DCE1ED",
"UX c #F0F4FC",
/* pixels */
"e 6.Z.Z.Z.s.a.9.X.1.f.f.} p.A.g.g.g.5X5Xi.1.4X4Xf.aXT o = e i d h a i 5 d i 4.4.1.,.,.<.f / L.wXs.+.",
"^ $XgXgXfXfXgXgX5Xw.4Xg.>.g.Z.Z.A.>.%.5Xs.5.4XL.f.>.` q @ ..p.*.*.a.L.8.0.+.4.4.,.4.3.4.f s.aXuXg.5X",
"^ g.sXgXpXfXgXgX9Xw.5Xf.>.g.A.A.g.N + i.$X0.f.t.*.> ^.R.& >.>.+   <.0XK.#.} 4.4.4.,.4.3.f i.uXuXuXuX",
"t a.sXpX@XiXfXsXuX9.5X5X2.g.9X9Xg.M e s 3.i.r.R 8 {.oXT.& L 0 E.% R 7.J.[ ' ] | X.1.i.| 4 ) p.g.s.8.",
"e i.wXsXL.#X#X@XK.[ a.f.X.U m n P +X{.[.a # & 9 {.`.`.W.7 t /.XX6 7 = ' [ ' 0.a.i.9.s.6.#.#.i.e.o.5 ",
"a 7.qX0X7.L.J.H.H.d #.,.7 8 h U.s h I.}.}./.].[.XX`.`._.E.^..X`.I.$ R | _ } uX$X$X$XpXiXiXuXuXwXg.' ",
"g @.7.O.#.g.J.@.H.d #.5X= a oX.X[.I.I.).'.'.'.'.'.`.`.`.'.'.'.'.}.s # + o o T #X$X$XiX$XuXuXuXuXg.f ",
"p [ @.7.a.L.@XuX@X' a.0XB f oX`..X.X_.`.'.`.`.`.`.`.`.`.`.`.`.`.`.[.Y.R.R.Y.g T g.$XqXqXuXuXiXsXg.a ",
"p [ O.u.f.P.P.qXP.O.4X3XQ , i (.`.'.'..X`.`.`.`.`.`.`.`.`.`.`.`.`.`.`.`.`./.t U s.qXP.P.uXiXaXsXqXf ",
"a 7.a.L.0XqXuXaXqXO.y.4XR = ; W.`.`.`.`.`.`.`.`.'.`.'.`.`.`.`.`.`.`.`.`.(.e L 4Xf.0XP.uXuXiXiXsXuXf ",
"f g.L.L.qXuXaXwXqX5.y.>.s /.[._.`.'.`.`.'.`.'.`.`.`.`.`.`.`.'.`.`.`.`.).s * r.0X4XL.P.uXaXiXiXpXiXf ",
"t d.qX0X0XqX0Xg.a. .*.= {.XX'.'..X}..X'.'.`.'.'.`.`.`.`.`.`.`.`.`.`.`.).l.; >.u.0X0XqX0X9XiXsXsXsX^ ",
"4 ) ..,.,.,.,...( a >.B R.oX'..XE.6  X X}.'.'.'.'.'.'.'.'.`.'.XX XoX`.`.XX^.e R u.L.t.L.uXiXsXsXdX` ",
"8.$XuXuX9Xg.5Xf.i.t 2.T $ R..XE.U. Xz.U.XX X X X X X X X X X_.].l. X.X`.`.oX/.% L J.] K.iXiX@X$XA.) ",
"uX$X$X$XqX5Xa.o._ i i L + d R.7 4 '.8 U. X7 # % # % % # % # Y.oXE.4 ^.`.[.l.s # N u u u ,.8.6.1.>.t ",
"A.A.$XA.g.g.i.) t 4 ^ >.q U.9 @ 5 E.a Y.+XgXvXFXcXlXvXvXvXzX@.E.^.+ h  XE.  . . @ N 2 u d.g.uXwXg.^ ",
"pXpX#Xp.p.a.p.o.t 3 ..g.*.# 1.L p g q OXf.JXUXUXFXlXJXUXUXPXeXE U.+ k $ R.# C J c X X @ k N f.uXf.f ",
"pXfX#XA.p.i.d.` 5 4 ..g.p.U  .B # # . m 6XGXUXPXeX2XcXJXIXPXlXZ . j j . Y.# n -.T N c . . c *.5Xi.a ",
"^ o.o.E E ^ ^ E t 4 } p.g.2.L P G $ d a n 2XzXzXzXzXcXcX2X1XA 0 f a / % 7 9 o J <.<.-.o X k C T +.p ",
"4 ) X.| | 5 a e.Z.6.:.d.g.p.F Q V.3 W.E.B x b 3XJXKXBXeXV x V U.}.|.,XV.O 9 C Z C c T R ;.J o c 9 5 ",
"t 2.9.9.9.a ^ e.p.9Xp.1.i.6.= Q C.i W.*XFX<XK ! mXAX&XM.1X<XrXhX-XU.&X%XB T z l Z Z & d.5Xf.~ o o % ",
"E 0.i.i.9.a ) 9.2.p.,.w.p.d.U Q V.w *XCXPX8XyXSXZXAXZXLXDX7XHXKX:X8 C.6.N f.&.c O k X o *.f.a.T k   ",
"t ,.,.6.,.e E o.2.p.Q e.f.g.d.R =.;X:XZXPXtXDXLXAXAXAXLXHX8XGXVXMX*XM.L U i.1.R R R R R 3Xu.f.d.-.7 ",
"t ) _ ) f 4 s ) 2.Q E 3Xg.g.g.r.U ! =X>XnXxXBXSXZXZXAXSXVXBXnXnX>X=X$ 9 ,.,.1.3.X.,.| | u.u.d.4XL.5 ",
"a.wXwXaX$Xi s o.w.e t y.w.d.f.g.*., h.=XnXVXZXZXbXN.;XAXZXVXnXG.M.w 7 ( L.L.8.K.Z.pXpXo.] i.d.y.9.5 ",
"g.uXaXaXaXt e t Q 4 4 y q I {  ...8 % r G.bXmXNXNXmXMXZXNXhXhX!   7 g @.0X7.@.@.@XfXfX6.e _ { _ ( e ",
"g.9XuXaXuX} 0.p.9.6.#.5 6 p #.f.5X| L o + o M hXbXmXbX&XM.  O z c 8 h O.s.@.H.OX%XfXpXo.2.qXL.L.f.a.",
"5Xg.uXuX5X2.A.p.s.s.p.h d @.0XwX4XT n C S V b z O o k O j x Z D J = u H.@.H.[ @XpXpX#X6.s.g.L.f.u.f.",
"g.g.uXuX9X1.s.0.0.0.9._ [ [ K.f.U n D K D Z V x j b x j x S S D K V = O.7.8.8.@X#X#X@XO.a.L.s.#.9.d.",
"0XqXiXiXuX,.0.9.9.9.i.o.K.[ @.A Z D D Z z M H M M A Z z M H H v Z D C N t.f.$X#X@X@XJ.` 5.L.7.@.7.f.",
"P.uXiXpXiX,.i.0.0.p.9.,.wX#.9 z b V k O < B.D.D.S.H W S.D.D.S.* k V D N m t.0X$XL.8.H.] t.L.7.L.u.f.",
"P.uXiXsXiX,.i.p.a.i.0...r.-.=.A V b . q , h.c.m.F.Y ! F.v.c.x.- . b K Z . n m m m L Z.O.u.L.L.0X0XL.",
"#X#XwXfX#X) o.9.9.1.2.^ F G NXbXB . . f # 1 c.Q.b.W W b.m.c.j.-   O N V z W 2.C.2.=.T Q d.0X0X0X0XL.",
"P.L.L.P.6.5 [ o.>.1.1.q 9 &XVXbXY m B R # k.m.m.b.F M F.m.n.n.S.+ 9 T X n bXVXSXAXjX& R f.f.0.a.f.5X",
":.:.,.( i ` 9XaXaXaXsXA W NXmXG  .sXiXqX& 1 B.B.N.M n M.M.M.P < L e | T o F G G hXhXn 0 f ` ] } >.:.",
"t.q.<.] f g.aXsXsXaXsX$.n M M =.$XiXuXf.n   n H H A H H H G F * L p f ( , B B B * M U y i ' 5.r.w.q.",
"r.4.1.4.} g.5X5X5XaXsXw.U *.*.p.iXgXZ.< h.k.k.S.B.B.S.S.S.F.b.x.w > :.e.9.p.0Xf.-.%.y.f.3.X.y.y.y.q.",
"r.5.4.4.:.d.g.d.4XqXwX5Xq.A.uX9X$Xi.C.jXmX=Xm.m.m.m.m.m.m.m.m.m.n.k.& ;.5Xw.u.f.u.u.f.4Xi.:.q.q.t.y.",
"u.i.t.<.Q y.d.f.3X5XqX4X} a.d.i.U < V.KXIXMX=Xv.m.m.m.n.m.m.m.m.m.x.$ Y y.a.r.y.y.u.y.f.d.>.q.q.w.y.",
"t.t.t.<.:.y.y.3X3X4X4Xu. .r.f.g.m 1 =X:XKXJX;Xc.c.c.c.c.c.n.m.m.v.n.x.< B O.| f.u.u.f.f.r.1.4.4.y.y.",
"w.r.w.<.E :.>.q.<.<.,./ ( r.d.i.B r ~.~.:XBXkXN.: - - - - h.b.v.Q.!.~.- 2 h a 5.t.u.u.f.r.:.5.t.y.d.",
":.:.>.:.f ) 4X4Xf.{ t f ^ { } { ~ 0 w ~.~.*XV.F U J U = L , h.~.!.~.h.P ' h 5  .<.>.<.t.5.t  .1.>.>.",
"d.a.f.d.4.,.wX5X4X1.i.4X0.#.@.] O.T & h.h.1 0 F w.d.i.Q  .Y 0 < h.W , <.7.a 4 E <.4.-. .Q ..f.5Xg.f.",
"e.i.a.a.r.X.0XL.6.} 5.7.#.a.#.}  .$.x X j . n e.d.d.d.( I } = . . . n U >.9.,.>.<.<.4.,.,.>.r.i.d.a.",
"w.9.r.5.O.] g.K.' ' @.@.7.L.L.{ & . n D D v n uXpXpXpX6.i.P.U X v v k . J d.5Xy.<.t.<.4.1.<.y.r.r.r.",
"d.1.X.3.O.] f.9.| | @.K.K.aXg.B 2.C.%.D $.V n uXiXpXpX2.f.aXU j z $.9X9Xp.R q.w.<.<.<.<.<.1.f.y.u.y.",
"i.5.O.] ] ] 3.} 4.4.a.$XpXfXa.& C.hX*.V Z V %.uXuXuX#X2.a.0X;.c k %.bXBXhXN &.e.t.t.<.4.<.r.L.4Xu.f.",
"f.u.4.O.[ ] ,.X.,.X.s.pXpXpXa.l O O X . X A g.A.$XA.$Xi.a.0X0X&.l z O   O k ;.i.1.t.t.t.<.t.u.u.a.u.",
"w.r.1.,.| X.i.5.1.,.} p.g.8...Y T R &.&.R <.f.L.0Xg.P.i.i.4XL.u.;.&.&.&.&.;.3X,.{  .{ ~ { :.u.u.y.y.",
"q e e e 4 f ..( E E e e t t y E Q  .X.,.5.1.0X0X0X0XP.0.Q  .....{ { ) ( E E { ( y E f f 5 e E R Q E "
};
