/* XPM */
static char *result[] = {
/* columns rows colors chars-per-pixel */
"50 50 220 2 ",
"   c #2D251F",
".  c #14142F",
"X  c #0A0C37",
"o  c #040B3C",
"O  c #120F31",
"+  c #0E143B",
"@  c #191736",
"#  c #13163B",
"$  c #1B1B3B",
"%  c #241D2E",
"&  c #2A192A",
"*  c #241D31",
"=  c #331F30",
"-  c #1E223D",
";  c #2B2628",
":  c #2D232C",
">  c #392627",
",  c #33252A",
"<  c #35282C",
"1  c #3C2C2C",
"2  c #3D342B",
"3  c #242337",
"4  c #2D2435",
"5  c #342B31",
"6  c #3B2D32",
"7  c #332A39",
"8  c #472828",
"9  c #422D2E",
"0  c #443528",
"q  c #44322D",
"w  c #4B352C",
"e  c #4D392D",
"r  c #56382D",
"t  c #533C2D",
"y  c #512E30",
"u  c #443532",
"i  c #4D3A34",
"p  c #463A3A",
"a  c #583233",
"s  c #533D32",
"d  c #6B3B30",
"f  c #683D33",
"g  c #6B571D",
"h  c #78681D",
"j  c #54452B",
"k  c #5E442F",
"l  c #5E5426",
"z  c #4E493B",
"x  c #564135",
"c  c #5D4431",
"v  c #5A4A39",
"b  c #555030",
"n  c #60452F",
"m  c #7A402F",
"M  c #685B28",
"N  c #624630",
"B  c #654A32",
"V  c #694C34",
"C  c #644D3B",
"Z  c #6A4F38",
"A  c #7B4538",
"S  c #6B5037",
"D  c #6D533A",
"F  c #685838",
"G  c #71563C",
"H  c #74593E",
"J  c #6E652B",
"K  c #7B722C",
"L  c #6B6337",
"P  c #050942",
"I  c #0F1648",
"U  c #151B44",
"Y  c #161A46",
"T  c #1D2249",
"R  c #1A2152",
"E  c #2A2343",
"W  c #242548",
"Q  c #352E47",
"!  c #3C3D46",
"~  c #262B55",
"^  c #2D3255",
"/  c #2A325D",
"(  c #383657",
")  c #34395D",
"_  c #0D1B63",
"`  c #2C3560",
"'  c #323B63",
"]  c #453841",
"[  c #553C4A",
"{  c #413B56",
"}  c #523852",
"|  c #3B4167",
" . c #414147",
".. c #404048",
"X. c #57454B",
"o. c #5A564B",
"O. c #4D4555",
"+. c #5A4858",
"@. c #694D48",
"#. c #6C5347",
"$. c #765C41",
"%. c #795E42",
"&. c #63535F",
"*. c #775859",
"=. c #7D6145",
"-. c #786845",
";. c #766356",
":. c #494967",
">. c #56526A",
",. c #766964",
"<. c #746874",
"1. c #907919",
"2. c #8F4222",
"3. c #8D482A",
"4. c #945636",
"5. c #AA562E",
"6. c #867A29",
"7. c #907F22",
"8. c #8A7D37",
"9. c #C85F24",
"0. c #CC6A31",
"q. c #DA753C",
"w. c #FD7E2F",
"e. c #EB7C3B",
"r. c #F37D34",
"t. c #FD7E31",
"y. c #875849",
"u. c #8C5E4F",
"i. c #816447",
"p. c #986551",
"a. c #AE6441",
"s. c #B76945",
"d. c #85696B",
"f. c #8B7171",
"g. c #9E7B78",
"h. c #AD796A",
"j. c #A37D79",
"k. c #C36E43",
"l. c #C87346",
"z. c #C67C55",
"x. c #C87270",
"c. c #7D8079",
"v. c #B09E1F",
"b. c #8E852B",
"n. c #928529",
"m. c #9C922B",
"M. c #958B32",
"N. c #908937",
"B. c #B08D2D",
"V. c #AA9A28",
"C. c #B89923",
"Z. c #A39736",
"A. c #B8A92F",
"S. c #C7A417",
"D. c #FF812E",
"F. c #EB8239",
"G. c #FE8133",
"H. c #CBBB2D",
"J. c #D3C21F",
"K. c #E8D41B",
"L. c #F2DE1C",
"P. c #F8E41D",
"I. c #FEEE1C",
"U. c #FFF11D",
"Y. c #D5C92B",
"T. c #D7C92B",
"R. c #D9C732",
"E. c #EAD929",
"W. c #EDDE2B",
"Q. c #EADC30",
"!. c #EFE228",
"~. c #F6E625",
"^. c #FBEB23",
"/. c #FFF021",
"(. c #AA9351",
"). c #938877",
"_. c #B38E75",
"`. c #EC894B",
"'. c #F68A48",
"]. c #E1875B",
"[. c #DBA367",
"{. c #E3C946",
"}. c #1E52B3",
"|. c #757798",
" X c #2F7DCF",
".X c #75839B",
"XX c #7092C8",
"oX c #968B97",
"OX c #B1938C",
"+X c #8A94AD",
"@X c #99A4B8",
"#X c #B8AAA9",
"$X c #A3A6BE",
"%X c #C19B8A",
"&X c #F7958F",
"*X c #C7A88D",
"=X c #DBA68A",
"-X c #C4A696",
";X c #DFA891",
":X c #E3B08E",
">X c #F9AB92",
",X c #E7B596",
"<X c #F2BE99",
"1X c #CAB5AC",
"2X c #CAA5B6",
"3X c #E1BAA0",
"4X c #F7BBA6",
"5X c #FDCCA8",
"6X c #FBD3AD",
"7X c #EFCEB5",
"8X c #8D9DC0",
"9X c #91A8D6",
"0X c #BBC2D3",
"qX c #9DC3E4",
"wX c #E9D2C7",
"eX c #E4DFDB",
"rX c #CDD1E0",
"tX c #D9DDE7",
"yX c #DFE4F2",
"uX c #E7ECF4",
/* pixels */
"D S N n k B B B V V V D G H B k k D S B V B B V B B n D S B B B k k n n S S n S B n n B B B V V V V ",
"G H Z V k n n n n n B B B V N k N S S B B n N B n n f B V V D B k k k B D D n B n n B S B B B B H H ",
"H H N B B V V V V V V n n n f k V =.=.S B k n S n n B V V H i.S k V Z H i.=.Z B B V H %.n B B B V V ",
"i.$.H i.V n B B B V n n n V B B c S F k n n n n n n n n n S D n k G G $.=.=.B n N N D Z f n n n n B ",
"G D Z G B n n n n n n B Z D G %.B B B V V B B B k C q > k B N N k k k S -.H $.N n n n n n N n n n n ",
"G B B B G B V N B N B V S D B B B B n v ;.V B n k v L 3 e k q e k k k k N c D B k n B n B B B n B B ",
"S D Z B B V $.G G D B H B n N N S B 2 3 ,.;.Z k x M R.j w e : & B B B V V k B B k G =.S B V n n n n ",
"B D V G B V G Z %.=.B Z B B Z N x @.C K n.o.1 q J Q.L.l 0 J A.0 e k c k B B $.=.D G %.Z n n n n B B ",
"N N V G k N B B G F B N B B n 0 p 0 8.H.E.b.J K Q.U.P.v.K !.E.g < j V V B N =.$.=.G S N S k k k B V ",
"G G B n k Z D k S S k k k n q L !.T.6.1.K./././.U.U.U.P.~.U.P.v.> : , , k S D G D Z S n B k k k D i.",
"%.=.Z k k B D k B B k n n n 6 J ~.I.~.P.U.U.I.I.I.I.I.I.I.I.U.L.V.M.M.8.j c k k Z B B B S G S k B B ",
"D D n n n n B B N n B B Z N c 2 h K.U.U.I.I.I.I.I.I.I.I.I.I.I.I.U.U.P.V.0 c B S H B Z B =.=.$.S n B ",
"B B B V B n n N N V B V H G C M n.L.I.I.U.U.I.I.I.U.U.I.U.I.I.I.I.P.C.0 t B k S D N B B H =.H F n B ",
"n B N B V V B B B V B B Z w M.E.I.I.^.U.U./.I.U.I.I.I.U.I.I.U.I.I.L.h , B B N N B B $.=.S B k k n k ",
"n n B n G %.=.B n n n n B 1 M.^.I.!.V.Y.!.~.U.U.U.U.U.U.U.U.!.!.I.I.K.n.j n k c k N H H H $.B N B n ",
"B D %.B V %.=.V n B B B B t 5 V.~.b.A.m.m.!.Y.Y.Y.Y.Y.Y.Y.!.H.V.!.I.^.W.7.> B k k k n B H =.=.k n B ",
"B B V G B B Z Z B V V V B x : b.K ; J.6.M.A. . . . . . .! N.!.b.K ^.H.l 2 $ u j n n n n S S B k n n ",
"k k k k k k B S n B V N B k x j 0   m.J Z.).0XyX0X@XrXtX0Xc.m.K 4 N.Z.. O # T 3 1 6 k B B B N n n n ",
"N c B n k k k k k V D k k B N 6 x ; b - O.+XuXuX@X.X0XuXtX+X..3 P o N.; 2 1 . # o o p V V B B k n n ",
"Z N B B B G B B V B N k B B %.v 1 X.: l z :.@X$X.X+X@X@X|.>.z b z 7 b 5 $ i e 6 O X ~ p k k B k n B ",
"H B B B Z S B B N S H V Z D $.$.: g.n S.B.( _ >.1XwX#X:._ ` Z.Q.{.(.@ ] R ^ W u o.w % $ 2 k B B N B ",
"S N n Z H n k n n G =.D G %.%.%.> ).n C.[.9X}.,.=X5X_.oX}.XX*X(.-._.5 u - T ~ T >.V j 3 O 1 k n D H ",
"B n n n B n n n B V D F S V i.%.s ,.p.[.6XqX XeX6X5X6XtX XqX7X[.i.d.< n u 3 4 4 > k B x 4 1 n n H %.",
"k B =.%.N n n B B B N V $.B G %.S i #.].>X2X8XwX5X6X5XwX$X2X>X[.4.> k n j B S V S B k N B D B k n Z ",
"S %.i.-.D V k N Z n B k n D B B B N 8 4.z.&X4X5X=Xh.:X5X4X&Xx.u.r q B V B Z k k n n N H H G V n n H ",
"V V G G $.=.N k n c k n k k n N N N C r d h.OX,X<X,X<X<Xj.j.} = k B B V H B k N m V V V V B S N V S ",
"V G S B $.$.N N $.F c G B n k n c n V p E E Y +.d.f.d.*.$ Y W ] k B B S $.V k B B B B B B N V B B B ",
"V G Z k k c B V S V S V N B B N N k 4 ( ' ` / I P I o o R ' ' ' 1 k n k N N B k B N B N B N N n B B ",
"B c k k k k B Z B B B n B c B B t 7 ^ ' ' W ( ~ R ` R Y ( ' ~ ' ^ < V G D Z N V B V V V B V V V V V ",
"k B N k k k n N V G V B D $.V N , U ` Y # a k.k.s.} y.k.l.k.= Y ' ~ 5 v #.D G G N B S n N n B B B n ",
"n n k S G n B n D =.B k B N t p d.{ R o 9 8 9.t.e.+.p.t.t.9.& P / ' X * 4 4 6 N n n n n k k n B B B ",
"n k k n Z Z n n V B k k C V q *.4Xj.O O v > 0.G.e.} y.t.t.9.m O 7 T W g.%X%X).6 B n n n f n n B n n ",
"n N N V D V k k k k k k n e p ;X=X@.r s c > 0.e.k.Q [ l.s.a.4.9 n , E d.j.%X%XQ N N V V B n B n n n ",
"N N n G $.S B S G k n B V s E &.X.c N c C * 7 } O.( { } } Q % v B n 6 , : 6 +.i V B B B n G y.V B n ",
"V V B S V c n B B B B V V N i 9 0 B #.;.f 4.5.s.s.s.l.l.q.q.0.r w c N N n r 9 c B N V D n B D B n B ",
"V B V V G G B n c N B N f B B B B N x *.-X,X'.t.G.G.t.t.G.t.t.e.a 9 V %.D n n n n n G %.B k B B B B ",
"V G V B =.%.k k Z N B B B B B N Z C 8 z.3XeX;Xr.w.w.w.w.t.t.w.G.5.y t H D Z N B B B B V k k k k S H ",
"S H V n $.%.B n n B B V D V N N G @.8 F.`.3X1Xz.5.2.2.2.5.r.D.D.G.m ; B N n N B V B N G B k k k V H ",
"n N n n B B n n B N c S $.N c S Z C i 3.'.`._.@.> > > > 8 5.F.G.0.f c c n n k N n n n N B B F N n n ",
"n n B B n N B Z %.B B D %.D B N N N s 7 f A N q n V n n t r d A y s S B n n k n n n n N V V B B B n ",
"f n B n n B B B Z B Z B V V H V N k 6 T Y Y X w H D n n B 1 o P X 4 e B B B D S n n B V V V V V B B ",
"n B B B B n V G V Z V B B B B n k i 7 ( | | U w S V B V V 6 I ~ ) ( p x B D H G n n B S H V V V B n ",
"n n n B S n S =.G H $.B B B S k q O.-X<./ ' * r B B B B B u # T oX1XOXQ c G B H D B V V H V n n n k ",
"n B S B B V B B k V Z n n k N N u @ E $ + # p N N B k k c k 5 U E 4 3 - j N B H S N n n n n N B B n ",
"n H i.N k k k k k k k n N B V B k C @.e s c V B B B B n B n B o.i i x i k N B V B n n N V V V B V n ",
"n B D B n H S n B B B S B V B n B H H F Z V V B V V V V B B S G B B N n k H D N n n n n B V V V B c ",
"k B =.=.B B B V B V B v V N B B n k G i.G H %.B n n n n B =.G k n n n k k N n n n H G n n V V H V k ",
"N B =.H H B H H B H $.F 4.D N n k k Z $.D $.Z n S V n n k =.$.k n k n N V V V S V i.H n B G H G N k ",
"S G V S B n G H B G =.Z B v k k B B B B H H V n V S B H G S S B N n k N G G Z S V H D B G B Z S B B ",
"S D B n n k N V B V B G H N D N B B B V V S B B B B G H =.B B N n n B B B B V H G B N B $.D k B N n "
};
