/* XPM */
static char *result[] = {
/* columns rows colors chars-per-pixel */
"50 50 181 2 ",
"   c #0D0C0B",
".  c #11100E",
"X  c #0D0D10",
"o  c #0F1214",
"O  c #151413",
"+  c #181715",
"@  c #1A1916",
"#  c #151719",
"$  c #17181A",
"%  c #1C1C1C",
"&  c #181818",
"*  c #201F1E",
"=  c #1F201F",
"-  c #22211E",
";  c #1D1F21",
":  c #201F20",
">  c #1F2122",
",  c #1F262E",
"<  c #242424",
"1  c #292725",
"2  c #272826",
"3  c #2A2926",
"4  c #242629",
"5  c #27292A",
"6  c #2C2C2B",
"7  c #282728",
"8  c #302F2C",
"9  c #2E312F",
"0  c #32312E",
"q  c #252C31",
"w  c #2C2E31",
"e  c #312F31",
"r  c #2E3133",
"t  c #2F353C",
"y  c #343433",
"u  c #393733",
"i  c #373836",
"p  c #3A3936",
"a  c #343639",
"s  c #36393B",
"d  c #3B3C3B",
"f  c #383738",
"g  c #403E3C",
"h  c #413C35",
"j  c #3E403F",
"k  c #43423D",
"l  c #48453E",
"z  c #363C42",
"x  c #3B3E41",
"c  c #403F40",
"v  c #3D4144",
"b  c #3C4349",
"n  c #3E4751",
"m  c #434443",
"M  c #494743",
"N  c #4C4A45",
"B  c #444649",
"V  c #45494C",
"C  c #4C4C4B",
"Z  c #504D46",
"A  c #514E4A",
"S  c #4E504F",
"D  c #53514D",
"F  c #59554D",
"G  c #444B52",
"H  c #4B4E51",
"J  c #444E58",
"K  c #4E5154",
"L  c #4C545B",
"P  c #45505E",
"I  c #545453",
"U  c #595652",
"Y  c #565856",
"T  c #5C5955",
"R  c #53565A",
"E  c #56595B",
"W  c #5C5C5B",
"Q  c #625D55",
"!  c #615E5A",
"~  c #5F615E",
"^  c #64625C",
"/  c #6A655E",
"(  c #6D685F",
")  c #676257",
"_  c #495664",
"`  c #545B62",
"'  c #5A5E61",
"]  c #5D6164",
"[  c #5C646C",
"{  c #556474",
"}  c #5D6772",
"|  c #5A6B7D",
" . c #54667D",
".. c #646563",
"X. c #696661",
"o. c #6C6965",
"O. c #626669",
"+. c #65696C",
"@. c #6C6C6B",
"#. c #666866",
"$. c #716D66",
"%. c #716F6B",
"&. c #6E706E",
"*. c #73726D",
"=. c #79756C",
"-. c #7E796D",
";. c #646B73",
":. c #696E72",
">. c #626D7A",
",. c #6D7174",
"<. c #66717D",
"1. c #6C747B",
"2. c #737473",
"3. c #797772",
"4. c #777876",
"5. c #7C7A74",
"6. c #72767A",
"7. c #75797D",
"8. c #7B7C7C",
"9. c #817D75",
"0. c #827E79",
"q. c #7E807E",
"w. c #83817C",
"e. c #89847D",
"r. c #5B6C81",
"t. c #586F8B",
"y. c #5E7085",
"u. c #5E7591",
"i. c #6D7783",
"p. c #6E7983",
"a. c #6B7888",
"s. c #637182",
"d. c #747B82",
"f. c #7A7E81",
"g. c #727B85",
"h. c #627791",
"j. c #637B98",
"k. c #707F91",
"l. c #7D8184",
"z. c #76808D",
"x. c #7C838A",
"c. c #738393",
"v. c #7E8994",
"b. c #798797",
"n. c #6E88A6",
"m. c #838584",
"M. c #8A8781",
"N. c #8C8984",
"B. c #82868B",
"V. c #84898C",
"C. c #8A8C8C",
"Z. c #878987",
"A. c #918D86",
"S. c #918F8A",
"D. c #8F918E",
"F. c #93928F",
"G. c #99958D",
"H. c #848B93",
"J. c #898D92",
"K. c #858E99",
"L. c #8C9194",
"P. c #84919D",
"I. c #8C939B",
"U. c #949491",
"Y. c #9B9892",
"T. c #94999D",
"R. c #9B9C9B",
"E. c #969797",
"W. c #A19E97",
"Q. c #A29F9A",
"!. c #A9A49C",
"~. c #818FA1",
"^. c #8896A4",
"/. c #959CA5",
"(. c #97A7BA",
"). c #A5A6A4",
"_. c #ADABA6",
"`. c #B0ADA7",
"'. c #B8BAB8",
"]. c #C2C1BD",
"[. c #9DAFC7",
/* pixels */
"5.A.S.`.A.u % u G.W.X.! Z h 0.A.0.! / N p l d % S W W N M I Y e U 3...@.U f ; C C w e e f d 5 # T 5.",
"M.5.0.w.A.d + D ) Q Z Z h k ! $.=.9.9.=.0.3./ u o.A f p d f m 8 / 2.../ %.c 7 T e y e u d a 6 6 4...",
"Q T W X.T 6 @ Z F U Z F m W U D Q Q ! X.%...c : f f y e 8 8 y ; g T ] ..! D : e f f w y y d 6 5 @.W ",
"3 3 6 p < % . - 8 u Z l y u Q Z A Z c Z Z C 6 6 e e f u 8 w 5 # e D X.o.X.I O : 9 w 6 e d a ; O f m ",
"O . . O : 3 k 8 O * < * * O 1 u u h 8 8 8 : : 6 : 1 < % 5 q # % O 7 c R z w : o 4 , @ # # # % y 4 < ",
"+ u =.G.!.!._.W.A 7 1 1 l m N u : 8 h F F Q U Q I p M f y O # y h c D ! V I C 8 < # d C C Y T #.R 6 ",
"8 Z =.=.-.=./ $.^ 3 3 F e.5.9.$.u 9.0.0.9.9.9.*.$.W X.*.y f T T @.X.^ @.@.! ~ I m d 3.5.2.*.#.W +.m ",
"u l ( o.Q ! Q U T % M e.A.N.m @.c 9.0.=.%.! Q 3.5.$.$.Y < C ! S X...O.O.! @.~ Y M I ..&.X...W Y W d ",
"8 l ) Q ( $./ F m @ N / ( *.F 6 f 3.o.....Q ! X.X.! T g : M ! E ~ ..E T ! :.@.W h m ^ :.X.@.#.R I 5 ",
"u F / F T o./ N 8 6 8 M T o./ m : ..! U T ^ ^ ! W F N u # y I ..W o.Y I o.o.2.W v D ,.o.~ #.:.I p < ",
"* l Z l l Z D u 0 1 < 8 Z D C T 8 7 T U c h g g M g B z . u m Z m N I R O.6.:...y C E I D R R B r w ",
"* * u h 0 p 6 % < % O - * < 6 k e O 7 g f e u 6 1 u w 4 % * f d e e x x z z s f > a ` H m C x ; 4 4 ",
"A l - * - . O + < - @ @ % O @ % 3 u 1 7 : * * 6 f m f 7 d y 6 f f 6 4 : # + @ % m V < < y # O O 5 < ",
"( 9.9.A 8 u =.Y.e.o.g = p F / @.%.2.%...c # c =.3.%.%.X.%.2.@.%.%.C e X.Z W ..@.8.5.2.K c c ......V ",
"F ) 9.) - F e.5.w.Z.*.y 8 Z U X.E W ! U N 7 U ..I Y ! &.2.2.o.o.;.' C 3.@.:.2.] ,.4.L...5 f.V.f.B.f.",
") ( ) ) - l 2.3.2.$.2.D 3 l Z M M A A A Z f C C C Y O.%.@.@.O.O.;.' y #.6.8.f.@.f.x.v.W 5 i.B.l.f.d.",
"k F ) Z @ 0 X.2.@.#.W v 3 M M N M M I U C a N C C I E ! ..+.+.,.<.<.6 W <.a.a.>.} v.6.V $ c.v.f.7.,.",
"- 6 < = % # 6 h k 0 < < 1 = 5 y 8 e y y 3 @ y d y p f d d d x d v v % 7 V L x z a b r 4 # a V L m y ",
"0 - @ l Y T D 5 D ..G.!.!.F.4.T g < 1 g m N C C A w d ! ..@.E < d y f t s G P b 6 # y I R E a m E H ",
"0 6 0 $.$.9.o.Y 5.$.G.m.3.&.W I m C X.$.3.w.9.3.0.' N *.@.8.] f I ' s.r. .u.t._ y 5 d.H.x.f.] f.d.d.",
"0 1 - Q D F N m E E D Y ^ ....~ V C T D / *.2.*.o.@.g ..! +.H < v ` h.n.n.u. ._ s ; k.b.1.E C +...[ ",
"3 - - l F ) D < D T T ! / @.#.C y % k F Q ( @.5.@.m d @.2.@.y < d G { | t.{ _ b 5 < L i.6.W y ' O.' ",
"@ @ . % @ - =   3 p f a a i 5 < m 6 - 3 < 6 p y < # < d C y < % y 6 6 % ; ; ; % % & : < < > ; b B x ",
"T A u N 6 y ..@...m 9 = 2 = N N._.R.0.m.@.m p O M m.0.Y C a d 5 y y O H x a +.a.>.G L y H ' ` L x a ",
"Q Q X.S 3 ..U.).].].].D.m d m.G.U.q.q.e.D.D.T 1 G.Y.M.B.V.O.C m.6.z.[ W m b.~.b.z.K.H H L.H.H.H.x.x.",
"F T ) Y 2 ^ @.8.Z.R.'.'.,.d &.@.2.=.=.-.w.D.^ u @.2.7.m.m.J.H ,.(.(.[.z.m z.i.,.:.f.C x 7.x.H.I.I.^.",
") / / D < W ..,.7.l.7.7.E i &.q.&.=.-.w.5.m.2.y @.m.m.m.l.m.l.R d.K.^.H.C ,.f.7.,.7.y x +.<.l.H.H.x.",
") ^ ~ v < E @.,.6.f.B.f.] a 2.@.@.#.&.4.4.m.7.y ! 4.f.8.*.,.,.8...E ..,.B 2.,.@.&.E > m ,.7.d.f.B.x.",
"..D B f > K ,.7.f.x.v.x.G > ;.i.,.8.8.4.w.U.' y D 8.C.m.2.4.2.l.W W ] v 9 ,.,...N a = B :.f.x.B.x.7.",
"f 5 6 & < r b ] 1.[ _ b $ + r n { ] E Y ' ..x 7 f H Y W W ..Y I V = > 7 @ 0 d 9 9 $ 1 i f R ;.E H s ",
"2 W 8.m.C.m.,.C r r X.@.m.S ~ ] B s 2 K @.+.@.Y C m V 9 6 < v C K L R <.q.Y 2 ] v.l.m.x.f.E 5 a H N ",
"m V.6.l.I././.1.5 ..C.q.L.+.l.T.p.b v ~ I R E E H R } ` 0 @.J.L.I.T.L.q.3.2.v C.7.7.L.T./.6.5 6.f.2.",
"R B.7.H./.I./.l.r p.~.z.,.K l.l.P.K b } K L C H C K V C d m.D.C.l.2.2.,.f.+.K J.x.U./.U.T.O.f l.2.+.",
"L H.P.v.c.c.c.<.> b | | n 9 p.;.R s $ q s m V V C R d < 5 Y 2.q.4.*.q.B.l.K R V.x.d.;.;.+.b % f a 0 ",
"v G V J z v s r f 6 r > 9 9 v j y ] a < < 4 r s d d f y C v 0 m v y v K m s v b z b f y 5 9 i r 6 u ",
"@.6.l.x.l.,.,.~ E B t ` z.b.g.] #.] :.+.+.+.V.V.V.m.Z.D.E.R.R.Y 6 C I I ] O.O.1.<.1.,.] W K S 5 c E ",
"[ ;.i.} ;.;.;.a.<.n v s.u.j._ n P ] J R H _ I.J.C.L.E._.'.).F.k d ..Y Y ] ] ] +.;.] ] T Y E R 5 S M ",
"} ` { } L G n  .| 5 b { y.{ L ` R ` K ` s z d.J.V.4.4.e.C.V.X.% < p v N K ] ` Y ` Y m y y j 5 = d d ",
"v t t z t < > 5 , = < > q b n b s z b s 5 e f m B j 6 6 < 9 y 2       % 6 < 6 > 2 2 = @ = % + - @ : ",
"4 y r 5 r d 7 5 s Y R K s 6 f C C b r ; V e : < a N j j S j 0 k D C d 9 < < f 6 5 7 0 3 - 9 Y D Z M ",
"y x a x G ` J 4 B v.P.f.,.v ,.J.l.f.2.#.' ..m a m d I W ^ T 0 X.e.3.3.A * p d y y d m y - S o.@.! Y ",
"a x d s x b n 5 ] ,.+.` ] G O.;.:.2.8.f.C.8.m 6 f p p p a i 1 U ^ X.( W % 0 p p 0 i f 0 % U ^ U Z D ",
"5 s r a s b r $ v R ` [ ] B +.O.+.W W ..+.C 7 e y d p 0 0 - @ k Q @./ U % % 3 6 1 6 0 %   6 u l Z g ",
"X @ > ; ; ; > q q > y f 6 = r V B V f x y < 8 y 2 3 % - .   @ @ 0 Z k 3 8   O + = = < 1 d 0 % 6 * < ",
"x w % H #.+.,.7.v.` a w G } E R e m +.%.o.#.@.@.I Y ..f - y U ^ ! o.X.! W M 0 5 &.*.$.@.o.$.M f g I ",
"..R d ,.x.l.7.+.<.:.r C p.g.E 6.H 8.T.M.m.2.2.2.2.3.8.u k Q T $./ o.X.o./ T N N o.$.( ) F ! p y X.! ",
"+.D v ..7.,.1.+...R > [ 6.f.] H B f.m.8.2.Y o.*.$.o.Z * l T U X.! T Q X.@.Q h k o.o./ @.T F < d ! / ",
"@.C m :.,.@.7.1.W a w H ..,.f.R 5 2.:.+.+.~ o.X.T F u O 0 D Q Q / Z / $.-.) p F o.Q Q X.U u - 0 M U ",
"+.C a ..' R W ] V w 6 a B E ' +.x 5 ] W M m c k k p 8 O 3 l l h M N Z F F A - h F Z Z Z p < - < 8 u ",
"r w < d C v m s $ > > ; 5 5 6 x y ; 7 b a e 0 1 8 6 @ 1 - 3 0 3 : < * + O + 8 8 1 1 < *   % 1 . + + "
};
