/* XPM */
static char *result[] = {
/* columns rows colors chars-per-pixel */
"50 50 238 2 ",
"   c #3B3704",
".  c #312B00",
"X  c #484416",
"o  c #585526",
"O  c #58593B",
"+  c #625D3C",
"@  c #66633C",
"#  c #726834",
"$  c #5C5D43",
"%  c #555C47",
"&  c #5C634B",
"*  c #5C6345",
"=  c #5B6555",
"-  c #59665D",
";  c #5C695D",
":  c #576457",
">  c #5E7443",
",  c #626345",
"<  c #64644B",
"1  c #6B6A4C",
"2  c #676A48",
"3  c #736E4C",
"4  c #736B44",
"5  c #6B784A",
"6  c #7B734B",
"7  c #72764C",
"8  c #656B54",
"9  c #6B6C53",
"0  c #6B6E5A",
"q  c #656956",
"w  c #716E54",
"e  c #6E7355",
"r  c #6E725B",
"t  c #6C7A55",
"y  c #747354",
"u  c #757A55",
"i  c #7B7954",
"p  c #73755B",
"a  c #79775C",
"s  c #757A5D",
"d  c #7B7B5C",
"f  c #797755",
"g  c #5D6A63",
"h  c #5A6762",
"j  c #616D64",
"k  c #65726B",
"l  c #6D796D",
"z  c #687467",
"x  c #737762",
"c  c #757A64",
"v  c #7C7C63",
"b  c #747C6B",
"n  c #7B7E6A",
"m  c #797760",
"M  c #6D7A71",
"N  c #6C7874",
"B  c #737D72",
"V  c #737D78",
"C  c #8C7637",
"Z  c #A67D27",
"A  c #9F761D",
"S  c #897B49",
"D  c #837B54",
"F  c #827E5B",
"G  c #897E54",
"H  c #917D48",
"J  c #807F63",
"K  c #807F69",
"L  c #6B884D",
"P  c #74864B",
"I  c #6D8353",
"U  c #6F8757",
"Y  c #718454",
"T  c #768A58",
"R  c #79975C",
"E  c #6B9757",
"W  c #7D8164",
"Q  c #7D836B",
"!  c #7C8B63",
"~  c #7B9763",
"^  c #768173",
"/  c #7B8474",
"(  c #7C857A",
")  c #7A8579",
"_  c #75A160",
"`  c #AB8429",
"'  c #B4892C",
"]  c #AA8636",
"[  c #B38D38",
"{  c #B4913C",
"}  c #BC902D",
"|  c #8C804D",
" . c #99854C",
".. c #83835D",
"X. c #8B825B",
"o. c #868759",
"O. c #938454",
"+. c #9C8A53",
"@. c #958958",
"#. c #81955B",
"$. c #AB8D4B",
"%. c #A78C48",
"&. c #AD914B",
"*. c #AC9247",
"=. c #B49345",
"-. c #B2934C",
";. c #BC9A4C",
":. c #B79649",
">. c #A48D52",
",. c #AB9252",
"<. c #A9945A",
"1. c #B49553",
"2. c #B59A55",
"3. c #BB9D54",
"4. c #B49B5A",
"5. c #BA9E5C",
"6. c #B08F49",
"7. c #BCA25A",
"8. c #838365",
"9. c #828D64",
"0. c #83846B",
"q. c #89866C",
"w. c #858A6C",
"e. c #8C8B6C",
"r. c #898663",
"t. c #918E6E",
"y. c #978D62",
"u. c #839364",
"i. c #8C9B64",
"p. c #869868",
"a. c #999565",
"s. c #838572",
"d. c #858A73",
"f. c #8B8C74",
"g. c #838C7B",
"h. c #8C8E79",
"j. c #918E73",
"k. c #8D9175",
"l. c #8D927B",
"z. c #8A9D72",
"x. c #929274",
"c. c #93957C",
"v. c #9A9A7C",
"b. c #989877",
"n. c #A79866",
"m. c #B59E64",
"M. c #A59C74",
"N. c #89A36B",
"B. c #98A677",
"V. c #93A469",
"C. c #BBA364",
"Z. c #BAA56C",
"A. c #A6A47C",
"S. c #BAA978",
"D. c #B6B07F",
"F. c #C29C49",
"G. c #C19F53",
"H. c #C7A657",
"J. c #D9B356",
"K. c #CCA652",
"L. c #C4AA69",
"P. c #CCB169",
"I. c #D6B568",
"U. c #C2AD74",
"Y. c #CAB57C",
"T. c #C9B57A",
"R. c #D5BA79",
"E. c #D0AD60",
"W. c #7B8781",
"Q. c #828C82",
"!. c #8C9484",
"~. c #8A9588",
"^. c #939682",
"/. c #959984",
"(. c #9B9C83",
"). c #949B8A",
"_. c #9B9E8B",
"`. c #939788",
"'. c #959E91",
"]. c #9DAB83",
"[. c #9CA18C",
"{. c #9BA186",
"}. c #9EB285",
"|. c #9CA393",
" X c #9AA397",
".X c #A3A38C",
"XX c #A7A989",
"oX c #A6B389",
"OX c #B6B58B",
"+X c #A3A693",
"@X c #A6A993",
"#X c #ABAC93",
"$X c #A5AB9C",
"%X c #ABAE9B",
"&X c #A2A698",
"*X c #ACB594",
"=X c #AEB19B",
"-X c #ADBA96",
";X c #B4B595",
":X c #B3B49C",
">X c #B5BB9C",
",X c #B9BA99",
"<X c #B6AF8E",
"1X c #ADB3A2",
"2X c #B2B5A1",
"3X c #BBBCA4",
"4X c #BCBCAA",
"5X c #B4B9A8",
"6X c #A6ADA1",
"7X c #A19F85",
"8X c #CEBB85",
"9X c #C7B888",
"0X c #D3BE86",
"qX c #C4BC97",
"wX c #C1BEA3",
"eX c #BAC39D",
"rX c #BDC2A4",
"tX c #BDC1AB",
"yX c #B6C4A0",
"uX c #BDC4B4",
"iX c #D4C18A",
"pX c #CEC59C",
"aX c #C9C299",
"sX c #D4C798",
"dX c #C3C3A4",
"fX c #C2C3AB",
"gX c #CDCBAC",
"hX c #C9C8A6",
"jX c #D3CBA3",
"kX c #D2CDAC",
"lX c #DAD1A9",
"zX c #C7C9B2",
"xX c #D6D6B7",
"cX c #CDD3AC",
"vX c #E6DAAA",
"bX c #DAD7C4",
"nX c #E1DDCB",
"mX c #E8E3D2",
/* pixels */
"kXrXtX7X^.:X3XzXyXU < `.#X< H.6 d. Xq u R ~ T B.uXtXp.R u.E I 0 6Xn D 7., +Xw.3 I fXzXrX(.J e.>X,XzX",
"tX=X< p +X$ n 4XoXU v l (.f.9 m :XB Q W 2 s v R eX-XT W t 2 W b ) :X9 < .X_.b d U ].4Xs < %X0.< (.fX",
"fX9 :XsXT.gXf.f.-XL d s `.|.2X[.).x f @.H >.d d L L e X.%. .@.y x ).+X>X^./ w d L :Xm (.gXI.9XzX+ :X",
"v.0 aX[ $.F.wX$ fXN.p., b ^ h.B / @ <.E.vXR.m.4 o.T 6 K.iXlXI.>., B b ( l 9 5 ! XX:X1 dX6.<.Z 9Xd.0.",
"l.#XS.O.q $.sX^.c.mXN.E c W O d r 2.sX1Xn _.lX5.H.7.E.xX^.W 1XR.$.q y @ s s _ B.nXl.`.0X6.r >.L..Xf.",
"=X< dX] ,.F.dX$ 3X{.~ * ..&.C.;.2.H.qX8 s.8 7X8.a f q.k.0 n p ,X,.>.2.C.:.D * ! z.3XO wX7.=.;.kX, .X",
"3XJ .XjX0XwXh.q.1XL W 6 7.iX4XpXP.S.=X8 ~.n a h.'.|.f.0.x Q.9 3XC.9XdX;XaXL.G n U *Xx.0.3XpX>Xf.q.dX",
">XwXm < _.$ K 4XoX! x -.aX!.< p zX] hX0.J n |.B k 0 / `.W p `.iXF.4X1 < !.iX:.J T eXwXc., l.< x.wXdX",
"hX:X-X2Xc.3XeXtXrXE , U.#X< ~.p !.0XC.gX8 =Xk g g.g.: z [.s gX2.jXq.W Q.< 3XL.O T -X-XoXfX.X3XoXB.*X",
"Y U Y B.nXB.E p.R T 3 7.4X< ^ < %XT.H.4 ).( =  X.X#X$X; ~.c.6 ;.U.[.< v 9 3X1.@.E T T Y u.mX}.P 9.5 ",
"2 p v N.B.p.p n * @.J...m (.K _.y c J.4.c ) l =X  X =Xg s.K 4.7.s s @Xw.{.1 r.H.y.+ 8.y N.~ N...d 1 ",
"f.d.v 2 L & G 4.<.$.@.p %XV ) B |.f.F 1 [.) j $X8.t.[.: ).h.6 T h.|.l M M 1Xv J <.8XK.@., N.2 p b ].",
":X).!.9 W 3 m.0XxX<Xr &Xk h z j q |.0.^.n ).j z  X Xh N `.n f.h.`.- k z h g %Xy ,X,XhXR.@.d W !.%X^.",
"< {.).b v 1.jX`.< n l.V h '.2X1Xk M c.0.c f.!.^ h - M ).s.0 0.`.M b 5X%X|.k V [.f 1 n jXF.r.n _.x.6 ",
"H.< :X/ 4 S.#X< Q.p `.g ) (.. J '.- ).c G.D d.!. X'.d.h.| H.m `.= 6Xi . [.Q.z c.v !.a <X8X@ / 3X8 H.",
"| y +XB 3 H.,X1 n w (.j V #XX q. X- _.p ,.D f.s.p m 0./ @.%.W _.: [.x.o =X^ r XXw 0.w ,Xm.F x (.J 6 ",
"Q 2X|.s.9 6.0X&Xp j.8.h.% l.2X|.k ) d.q.h.e xXz.~ u.u.zXs n w.d.c < &X%XQ : h.y .Xe.=X9X>.e n l.#Xx.",
":Xb c 1 <.4.4.3.jXA.p c.c & = % B l.q.8.xXi.].l.s e e.{.i.xXd q.w.b : * * ( c.y Z.sX%.m.4.>.@ e r (.",
"< y w >.0XwXOXS.-.6.+.f k.d.h.w.c.t.u T W f.8.e.M.M.x.W f.9.u.p r.0./.0.c.c.T +.*.*.OX<X#X9X,.F v 9 ",
"7 t  .I.uXy , (.9XS &.3 q.0.0.e.t.T #.o.f.y.Y.G.;.;.=.Y.@.0.9.p.a 8.f.v r.l.w >.S OXf.y 2 @XC. .W P ",
"P 2 C vX0.W Q w m f.p q.t.f 2.S .XjXo.0.M.U.` { [ [ } Z P.C.0.T aXv.D m.s r.q.d x.f i d.W p sX| 1 T ",
"N.u | Y.^.y p 0.c.d.W l.c.d @...s XX8.a.U.' :.4.C.1.6.[ } I.a.J B.P D @.a {.l.8.w.c.b.a f c.P. .u i.",
"Y u ..5.kXx.0.c.q % 8 % r x.W k.hXu.0.S.` ` m.jX<XqXqX-.' ' U.j.t.hXv.a (.9 < 9 q & l.r.f.lX7.D o.P ",
"i.#.i # *.o.r.8 < B.#X{., Q e.t.B.x.n.C.;.*.OXv.p K c.<XZ ] 1.M.x.p.t.e.c & c.XX#X8 8 b.i :.# 5 P V.",
"9XV.P | 3.f XX2 (.r.  b.f.< v.f u.K y.[ ` :.<X9 OX;X1 :X$.Z [ <.d p.s v.= d.c.  8.^., v.F 4.| 5 D.aX",
"pXOX> y.:.v b., c.j.X XXd.* v.i T 6 A.,.A 6.hX, b.k.< qX%.Z :.<Xp ! 1 7X< 0.A.X x./.O x.a %.T 5 oX;X",
"B.P s # 5.9.b.e = XX#Xv.* Q r.b.b.v.b.1.] Z Y.,Xu p ,XS.Z %.5.@.c.B.x.8.Q O l.#X^.& r w.r.<.# a P V.",
"P F D 5.sXt.e.x.q & 8 & c c.W f.hXu.f.Z.} ' =.Z.aXpXS.' Z ` Z.j.o.dXf.W c.c * = % 0 l.q.q.gXL.X.i Y ",
"i.u +.P.l.y a t.v.k.0.v.v.d @.X.7 {.8.y.R.[ Z Z ] ] Z ` ] L.n.m OXT G >.d x.c.Q l.f.q.e p h.8XH Y #.",
"P 5 S sXW v d.f v e.d ..t.a n.G v.aXT n m.Y.] ' } ` [ ] U.M.K o.eX#X6 4.3 b.W c Q 8.w n v 0.vX| 2 P ",
"P 8.O.5.:Xw y l.9XS ,.f q.e.s x.J f k.u.v | 9X-.G.G.3.0X@.0.9.i.d e.x.w.e.8.3 :.H 8X#X1 a uXI. .e 5 ",
"2 8.a +.T.OX,XD.$.$.@.i {.h.8.h.d.e.9 u.e.c.a e.b.b.e.c l.e.Y f q.^.Q / ! v.y O.$.-.7.OXqXR.+.e p 9 ",
"XXp p @ O.,.4.%.sXD.y ^./ * & = r w.f.d xXp.oXt.t W k.oX#.xXk.8.l.l % 0 $ 0 ^.s A.gXZ.2.1.,.9 n / ;X",
"0.#X/.b y >.9X*X8.(.d g.- d.%X=X8 x f.w.c y zXw.! ~ ~ xXp 0.0.f./ k &X2X/.= d.q.0.w `.sX=.w ^ _.2Xc ",
"D p [.c i 7.,X3 d.y {.x B :Xo i &X: `.0.*.<.b s.n m s./ D 3.s ~.-  Xf.. 7XQ.h (.p ( < #XP.4 B @X9  .",
"K.1 :Xg.@ T.;Xa !.v v.z ) #X  i 2X: ^.v 4.G c.s.'.'.!.c.6 2.p [.h ).k.  (.W.h _.w g.< #XU.3 B :Xq 3.",
"3 b._.b 8.;.jXg.1 d /.) k ~.=X5Xl B !.e.0 l.~.N - h l Q.^.c f.k.) j $X5X'.h V f.q.9 ).jX2.d b `.#X8 ",
"{.+X!.d 8.X.P.sXwXwXw %Xk h j j g !.^.w.8.g.M g 6X6XM - ~.8.c.0.|.z - j - N '.x XXxX8XC.4 0.1 ( !.3X",
"{.b m 7 R 1 o.F.U.1.r.a 2X^ ^ / ).l.i D f.'.: |.8.3 %Xl / [.3 r.Q |.( ) g.&Xv O.6. .,.r.2 L 7 v / Q ",
"2 d d i.V.N.a W + r.H.e.1 /.w.{.d s H.7.Q / - 2Xo   =Xl ^ ^ <.J.v f (.n ^.m F J.y.< s s ~ oXN.v f 8 ",
"L ! P ].mXB.Y T T ~ F 3.dXw n 8 (.9X;.S f.!.- '.2X@X Xq / ).3 ;.Y.:X< ( < 4XU.2 L #.V.R ].bXoXL T T ",
"OXA.*X>X^.3X-XeXyXT O C.wX< g.n 0.sX5.xXm _.l : ^ ) g j %X1 gXU.Y.(.8 ~.< XXS.4 E rXzXeX;Xh.@X3X>XgX",
"dXtXf.< (., 0.4XeXR v -.0X'.< 8 uXF.0Xg.f s (.g.l l V 6Xp 0.p hX] zXQ < `.jX:.r ! ].4Xn O +X9 9 3X>X",
"rX9.c.wX8XfXc.8.*XU v i 5.8XwXhXU.C.tXp W.b J Q +X`.l.y K ~.9 #X9XE.sXgX8X5.3 9.5 yXn c.jXR.pX=Xp 3X",
"XX, gX=.*.:.dXO =X].u.> 3 1.4.,.>.>.qXp m 9 ^.x.6 F J #X1 K q wXG.<.-.4.&.8.* R XX5X< wXF.>.] qXw .X",
"f..XU.$.r *.iX[.l.nXoX_ v p $ 9 q +.R.4Xf._.kXJ.C.H.7.sX#X0.2XsX4.w b O n p ~ ~ nX_.f.sX&.0 G Z.%Xf.",
"j.m aX] -.=.hX, >X].! 2 8 B !.n B <  .E.sXiXH.3 u ! @ 5.P.vXE.<.O / ^ /.^ n + p.R fX$ 3XH.,.{ sX0 c.",
"rX, >XqXR.hX(.v =X5 d p s._.#X+X|.n a @.C  ...s P U ! a @.C X.p b [.[.%X|.[.b m T }.(.J wX8XpX#Xw fX",
"3X.X, p +X$ n 3XoXI v c /.(.< 1 #Xs.n c 8 t ! T *XhXR W U 2 ! n B #Xs 9 K _.l K Y oX4Xh.O `.p < :XfX",
"xX>XwXv.q.XX>XhXzXY 1 d.;X& 7.O.c 5X0 t E N.R p.fXfX}.U z.R P < $Xh.6 K.1 XX&X$ Y -XzX=XfX7X#XfX>XkX"
};
