/* XPM */
static char *result[] = {
/* columns rows colors chars-per-pixel */
"50 50 120 2 ",
"   c #000F36",
".  c #001037",
"X  c #001539",
"o  c #001A3C",
"O  c #052944",
"+  c #0D3449",
"@  c #1B3C4D",
"#  c #3C5157",
"$  c #3C5158",
"%  c #007B6B",
"&  c #546D65",
"*  c #577167",
"=  c #587167",
"-  c #577168",
";  c #67786B",
":  c #68786B",
">  c #7D7E6E",
",  c #7E7F70",
"<  c #01826E",
"1  c #038570",
"2  c #088771",
"3  c #0B8871",
"4  c #289377",
"5  c #299278",
"6  c #3F9C7B",
"7  c #5B997B",
"8  c #7F806E",
"9  c #7F8A74",
"0  c #729176",
"q  c #47A07E",
"w  c #4AA27E",
"e  c #54A47F",
"r  c #58A57F",
"t  c #808A74",
"y  c #919177",
"u  c #929278",
"i  c #9D997C",
"p  c #A09B7C",
"a  c #91A27F",
"s  c #34B481",
"d  c #499F80",
"f  c #4CA380",
"g  c #57A581",
"h  c #59A681",
"j  c #5EA882",
"k  c #4FBB85",
"l  c #53BB85",
"z  c #5DBC86",
"x  c #5FBF88",
"c  c #64AB83",
"v  c #6CAC84",
"b  c #71AD84",
"n  c #65B085",
"m  c #68B086",
"M  c #61BD87",
"N  c #61BE88",
"B  c #7BB689",
"V  c #61C289",
"C  c #72C68C",
"Z  c #91A180",
"A  c #95AD84",
"S  c #9CAC85",
"D  c #97BF8C",
"F  c #98BF8C",
"G  c #BFAE87",
"H  c #BFAF88",
"J  c #C0AE87",
"K  c #C0AE88",
"L  c #D4BF8E",
"P  c #D4BF90",
"I  c #83C78E",
"U  c #83C88E",
"Y  c #8BCA8F",
"T  c #97C08C",
"R  c #98C08C",
"E  c #91C98F",
"W  c #8CCB90",
"Q  c #9EC791",
"!  c #99CF92",
"~  c #9ED294",
"^  c #A2C691",
"/  c #A8C691",
"(  c #A6CE93",
")  c #A8CE93",
"_  c #B4C993",
"`  c #B9CC94",
"'  c #A3D394",
"]  c #A9D395",
"[  c #B3D295",
"{  c #BBD197",
"}  c #BBD199",
"|  c #BFDC9A",
" . c #D5C08E",
".. c #CDC692",
"X. c #DACD95",
"o. c #C3D297",
"O. c #CAD397",
"+. c #C4D897",
"@. c #C3D498",
"#. c #CBD599",
"$. c #C3DA9A",
"%. c #C8D899",
"&. c #D3DB9C",
"*. c #DEDE9C",
"=. c #E7DD9D",
"-. c #ECDE9E",
";. c #F4DC9D",
":. c #FFDF9F",
">. c #E7E59F",
",. c #EFE09F",
"<. c #F2E29F",
"1. c #FFE19F",
"2. c #EFDFA0",
"3. c #F0DFA0",
"4. c #FFDFA0",
"5. c #E6E5A1",
"6. c #E8E4A1",
"7. c #F5E4A1",
"8. c #FDE4A1",
"9. c #FFEAA4",
/* pixels */
". i #.1 c +.! ` 2 g 8.@   @ 1.w 3 ` ! @.c % &.p X X p &.% c @.! _ 3 g 8.@   @ 8.f 2 ` ! @.c < &.i . ",
"i v m { =.+.I 7.O.^ q S > S w ^ O.7.Y $.>.} m v y y b m } =.@.Y 7.O.Q w S > A f Q O.7.W @.>.{ m v i ",
"&.m 7  .7.l s ( 8.Z q ^ >.^ q a 4.( s l 7. .7 n &.*.c 7  .7.l s ( 8.a q ^ 5.^ q Z 4.! s l 7.L 7 v &.",
"% {  .0 ] ] | ~ R t 9.6 < 6 9.9 D ~ | ] ' 0  .{ < 1 } P 0 ] ] | ~ D 9 9.6 % d 9.9 D ' $.] ' 0  .{ % ",
"c =.7.' V ..K ] V 5.7._ 5 _ 7.5.x ( H ..V ] 7.,.h h ,.7.] V ..H ( V 5.7._ 4 _ 7.5.V ( G ..V ' 9.=.c ",
"+.$.l ] ..+ o ; 6.M U *.E *.I M 5.; o + ..] l O.[ [ +.l ] ..+ o ; 5.x I *.E *.I M 5.; o + ..] l +.+.",
"! W s | J o o # 8.V k ] C ) k V 8.$ o o K | s Y W W Y s | G o o $ 9.x l ) C ] k x 9.$ o o K $.s W ! ",
"` ,.( ' ) ; # A ' ~ +.;.B 3.#.! ' A # ; ] ' ' <./ / <.' ~ ] ; # A ] ! +.;.B ;.+.! ' A $ : ) ~ ' 7._ ",
"3 O.8.F V 5.8.' z X.9.c % c 9.X.z ' 8.>.x T 4.#.3 2 #.:.F V 5.9.' z X.9.c % c 9.X.x ' 9.5.V D 8.O.2 ",
"f Q a t 5.M x ~ X.- o.j m r o.= X.~ x M 5.9 Z Q h h Q Z t 6.M x ~ X.- o.j m j o.- X.! M M 5.9 a Q f ",
"8.w q 9.7.U k +.9.o.< o.;.o.< o.9.+.l U 7.9.w f <.;.w w 9.<.I k #.9.+.< o.;.o.1 o.9.+.k I 7.9.q f 8.",
"@ S ^ 6 _ *.] ;.c c o.& O & o.j c 2.] *._ 6 ^ S @ @ S ^ q _ *.] -.c j o.& O & o.j c ;.] *._ 6 / S @ ",
"  > >.< 5 E C B % v ;.O o O ;.v % B C E 5 < 5.8 X X 8 >.% 4 E C B % v ;.O o O ;.m % B C Y 5 < 6.>   ",
"@ S ^ 6 _ *.) 2.c j o.& O & o.j c -.] *._ 6 ^ S @ @ S ^ 6 _ *.] ,.c j o.& O & { j c -.) =._ 6 ^ S @ ",
"8.w q 9.<.U l +.9.o.1 o.;.o.< o.9.+.l I 7.9.q f ;.;.w q 9.<.I k O.9.o.< o.;.o.1 o.9.#.k U <.9.q f 8.",
"e Q a 9 6.M x ~ X.- o.j v j o.= X.! z M 5.9 a Q h h Q Z 9 5.M z ~ X.= o.c v j o.- X.~ M V 5.t Z ^ f ",
"3 #.9.E V 5.8.' z X.9.c % c 9.X.z ] 8.5.V D 4.#.2 2 #.8.R x 5.9.' x X.9.c % c 9.X.z ' 8.5.V R 1.O.3 ",
"` <.' ~ ] ; $ A ] ! +.2.B 2.+.~ ' A $ ; ) ~ ' 7./ / 7.' ' ) ; $ A ' ! +.;.B 3.+.! ] A $ : ' ' ' 7.` ",
"! U 6 | G o o # 8.x k ) C ] k M 9.$ o o H $.s W W W W s | G o o # 9.x l ] C ) l x 8.$ o o K | s Y ! ",
"+.+.l ] ..+ o ; 6.M I *.E *.U M 5.; o + ..] l +._ [ #.k ] ..+ o ; 5.M U *.W *.I M 5.: o + ..] l +.} ",
"c =.7.' V ..K ] x 5.7._ 5 _ 7.5.V ) H ..V ] 7.,.h h >.7.] V ..K ( x 5.7._ 4 _ 7.5.V ' H O.V ] 7.=.c ",
"% }  .0 ] ] $.' T t 9.6 < 6 8.t D ~ | ] ] 0  .} < < } L 0 ] ' $.' R 9 9.6 < 6 9.9 R ~ | ] ] 0  .{ % ",
"&.m 7  .7.l s ( 4.a w ^ 6.^ q a 4.) s l 7.P 7 m &.&.m 7 L 8.l s ' 1.Z w ^ >.Q q Z 8.] 6 l 7. .7 m &.",
"p v m } -.+.W 7.#.Q f S , S w Q #.7.W %.6.} v v y y v m } 6.%.W 7.#.Q w S 8 S q Q #.<.Y %.,.{ n v p ",
"X u &.1 g [ W / 2 h ;.@ X @ 3.j 3 / Y [ j < &.u X o u &.< g [ Y / 2 j ;.@ X @ ;.j 2 / Y [ g 1 &.y X ",
"X y *.< g [ W / 2 j ;.@ X @ ;.h 3 / Y [ h < &.u o X u &.1 h [ W / 2 h ;.@ X @ ;.h 2 / W [ g 1 &.y X ",
"i v c { -.+.W 7.#.Q w S > S f Q #.<.Y #.-.{ m b y u b m } ,.%.Y 7.#.Q w S > S w Q #.7.Y +.6.} m v p ",
"&.m 7  .7.l s ' 8.Z q ^ >.^ q Z 1.' s l 7. .7 m *.&.c 7  .7.l s ( 8.a q ^ 6.^ w a 4.' s l 8. .7 v #.",
"< {  .0 ] ] $.~ R 9 9.6 < 6 9.9 R ' | ' ] 0  .} < 1 }  .0 ] ] | ' T 9 9.6 1 6 8.t T ' | ] ] 0  .} 1 ",
"c >.7.] V ..H ] V 5.7._ 4 _ <.>.V ( J ..V ] 7.6.g g ,.7.] V O.K ) x 5.7._ 5 _ 7.5.V ( G ..V ] 7.=.c ",
"@.$.l ' ..+ o ; 5.M U *.E *.U M >.; o + ..] l #.[ [ +.l ] ..+ o ; 5.M I *.E *.I M 5.; o + ..] l +.+.",
"! Y s $.H o o $ 8.x l ) C ] k x 8.# o o H | s W W W Y s $.J o o $ 8.V k ) C ] k M 8.# o o H $.s I ! ",
"` <.( ~ ] ; # A ' ~ +.3.B -.#.! ] A # ; ( ~ ! 8./ / 7.' ~ ) ; # A ] ~ +.-.B ;.+.! ' A $ ; ] ~ ( <.` ",
"2 O.:.D x 6.8.' z X.9.c % c 9.X.z ] 9.5.x D 4.#.2 < #.:.D V >.8.' z X.9.c % c 9.X.z ' 8.5.V D :.O.3 ",
"w ^ a t 5.M V ! X.- o.h v c o.= X.! x M 5.9 Z Q h h ^ a 9 >.M z ! X.= o.h v c o.- X.! V M >.9 Z ^ w ",
"1.w q 9.7.I l +.9.+.1 o.;.o.< o.9.+.k U 7.9.f f ;.;.w w 9.7.I l #.9.o.2 o.;.o.2 o.9.#.k I 7.9.q w 8.",
"@ S ^ 6 _ *.] ;.c j } & O & o.j c ;.) *._ 6 / S @ @ S ^ q _ *.] ,.c j o.& O & ` c c -.] *._ 6 ^ S @ ",
"  8 >.< 4 E C B % v ;.O o O ;.v % B C E 4 < 5.> X X 8 5.< 4 E C B % v ;.O o O ;.v % B C E 4 1 6.>   ",
"@ S ^ 6 _ =.] -.c j o.& O & o.j c 6.) *._ 6 ^ S @ @ S Q 6 _ *.) -.c j o.& O & o.j c -.] *._ 6 Q S @ ",
"8.w q 9.7.U k +.8.o.1 o.;.o.1 o.9.#.k I 7.9.q w ;.;.w w 9.<.I k +.9.o.1 o.;.o.2 o.8.#.k I 7.9.q w 8.",
"g R a t 5.x x ~ X.- o.j m j o.- X.~ x z 5.9 a ! h h Q a 9 5.N x ! X.- o.j v j o.- X.~ x x 5.t Z ^ f ",
"3 O.1.T x 5.8.] z X.9.c % c 9.X.x ' 9.>.V R 9.%.3 2 #.4.T x 6.9.' z X.9.c % c 9.X.z ' 8.5.x T 1.O.3 ",
"` 7.' ~ ] ; $ A ] ! +.3.B -.#.! ' A # ; ( ~ ' 7./ / 7.' ~ ) ; $ A ' ! #.2.B 3.#.! ' A # ; ( ' ' 7._ ",
"~ U s | G o o $ 9.x k ) C ] k x 8.$ o o H | 6 W Y W W s $.H o o $ 9.x k ] C ] k x 9.# o o G | s I ! ",
"+.@.l ' ..+ o ; 6.x I *.E *.I M 5.; o + ..] l +.[ [ #.l ] ..+ o ; 5.M I *.E *.I x 5.; o + ..] l $.+.",
"c =.7.] V ..K ] x 6.7._ 5 _ 7.5.V ] G ..V ] 7.,.r h ,.7.] V ..H ) V 5.7._ 4 _ 7.5.V ] H ..V ] 7.2.c ",
"< {  .0 ' ] | ~ D 9 9.6 < 6 9.t R ' | ] ] 0  .{ < 1 {  .0 ] ] | ' F t 9.6 1 6 9.9 D ' $.] ] 0  .} % ",
"&.m 7  .7.l s ( 8.Z f ^ 6.^ q a 8.' s l 7. .7 m &.&.n 7 P 7.l s ( 4.Z q ^ 6.^ d Z 8.' s l 7. .7 m &.",
"i v v { =.+.I 7.#.Q f S , S f Q #.3.Y o.=.} m v y y v v } =.$.Y 6.#.^ w S > S w ^ #.<.U +.=.} m v p ",
"  i &.< c +.! _ 3 f 8.@   @ 8.f 3 ` ! +.c % &.p X X p #.% c $.! ` 3 f 1.@   @ 1.w 3 ` ! +.c % &.i   "
};
